;FLAVOR:Marlin
;TIME:4940
;Filament used: 1.13596m
;Layer height: 0.12
;MINX:88.358
;MINY:77
;MINZ:0.12
;MAXX:146.627
;MAXY:158
;MAXZ:7.44
;Generated with Cura_SteamEngine 4.6.2
M140 S60
M105
M190 S60
M104 S200
M105
M109 S200
M82 ;absolute extrusion mode
; Ender 3 Custom Start G-code
G92 E0 ; Reset Extruder
G28 ; Home all axes
G1 Z2.0 F3000 ; Move Z Axis up little to prevent scratching of Heat Bed
G1 X0.1 Y20 Z0.3 F5000.0 ; Move to start position
G1 X0.1 Y200.0 Z0.3 F1500.0 E15 ; Draw the first line
G1 X0.4 Y200.0 Z0.3 F5000.0 ; Move to side a little
G1 X0.4 Y20 Z0.3 F1500.0 E30 ; Draw the second line
G92 E0 ; Reset Extruder
G1 Z2.0 F3000 ; Move Z Axis up little to prevent scratching of Heat Bed
G1 X5 Y20 Z0.3 F5000.0 ; Move over to prevent blob squish
G92 E0
G92 E0
G1 F1500 E-6.5
;LAYER_COUNT:62
;LAYER:0
M107
G0 F6000 X107.995 Y77.411 Z0.12
;TYPE:SKIRT
G1 F1500 E0
G1 F1200 X108.892 Y77.464 E0.00897
G1 X109.781 Y77.596 E0.01793
G1 X110.655 Y77.807 E0.0269
G1 X111.506 Y78.095 E0.03587
G1 X112.328 Y78.457 E0.04483
G1 X113.116 Y78.891 E0.05381
G1 X113.861 Y79.393 E0.06277
G1 X114.559 Y79.959 E0.07174
G1 X115.203 Y80.585 E0.0807
G1 X115.79 Y81.266 E0.08967
G1 X116.313 Y81.996 E0.09863
G1 X116.929 Y83.084 E0.11111
G1 X117.301 Y83.847 E0.11958
G1 X145.035 Y142.68 E0.76857
G1 X145.316 Y143.296 E0.77533
G1 X145.652 Y144.13 E0.7843
G1 X145.913 Y144.99 E0.79327
G1 X146.096 Y145.869 E0.80222
G1 X146.201 Y146.762 E0.8112
G1 X146.226 Y147.66 E0.82016
G1 X146.17 Y148.557 E0.82913
G1 X146.035 Y149.446 E0.8381
G1 X145.822 Y150.319 E0.84707
G1 X145.532 Y151.169 E0.85603
G1 X145.168 Y151.991 E0.865
G1 X144.732 Y152.777 E0.87397
G1 X144.228 Y153.521 E0.88293
G1 X143.659 Y154.217 E0.8919
G1 X143.031 Y154.86 E0.90087
G1 X142.349 Y155.444 E0.90983
G1 X141.617 Y155.966 E0.9188
G1 X140.842 Y156.42 E0.92776
G1 X140.029 Y156.804 E0.93673
G1 X139.185 Y157.114 E0.94571
G1 X138.318 Y157.348 E0.95467
G1 X137.433 Y157.503 E0.96363
G1 X136.283 Y157.587 E0.97514
G1 X135.35 Y157.6 E0.98445
G1 X99.42 Y157.599 E1.34296
G1 X98.722 Y157.589 E1.34992
G1 X97.825 Y157.536 E1.35889
G1 X96.936 Y157.404 E1.36786
G1 X96.063 Y157.193 E1.37682
G1 X95.211 Y156.905 E1.38579
G1 X94.389 Y156.543 E1.39476
G1 X93.602 Y156.109 E1.40372
G1 X92.857 Y155.607 E1.41269
G1 X92.159 Y155.041 E1.42165
G1 X91.514 Y154.414 E1.43063
G1 X90.928 Y153.733 E1.43959
G1 X90.404 Y153.003 E1.44856
G1 X89.948 Y152.229 E1.45752
G1 X89.562 Y151.417 E1.46649
G1 X89.25 Y150.575 E1.47545
G1 X89.013 Y149.708 E1.48442
G1 X88.855 Y148.823 E1.49339
G1 X88.771 Y147.764 E1.50399
G1 X88.758 Y147.158 E1.51004
G1 X88.759 Y139.918 E1.58228
G1 X88.769 Y139.221 E1.58924
G1 X88.822 Y138.324 E1.5982
G1 X88.954 Y137.435 E1.60717
G1 X89.051 Y136.991 E1.61171
G1 X89.239 Y136.22 E1.61962
G1 X89.616 Y134.761 E1.63466
G1 X90.187 Y132.276 E1.6601
G1 X90.694 Y129.749 E1.68582
G1 X91.113 Y127.276 E1.71085
G1 X91.467 Y124.768 E1.73612
G1 X91.753 Y122.23 E1.7616
G1 X91.965 Y119.71 E1.78684
G1 X92.108 Y117.162 E1.8123
G1 X92.177 Y114.63 E1.83757
G1 X92.175 Y112.089 E1.86293
G1 X92.099 Y109.51 E1.88867
G1 X91.956 Y107.011 E1.91365
G1 X91.736 Y104.451 E1.93929
G1 X91.45 Y101.95 E1.96441
G1 X91.085 Y99.402 E1.99009
G1 X90.659 Y96.932 E2.0151
G1 X90.159 Y94.449 E2.04037
G1 X89.571 Y91.904 E2.06643
G1 X89.088 Y90.021 E2.08583
G1 X88.903 Y89.141 E2.0948
G1 X88.798 Y88.249 E2.10377
G1 X88.772 Y87.35 E2.11274
G1 X88.827 Y86.453 E2.12171
G1 X88.96 Y85.565 E2.13067
G1 X89.173 Y84.692 E2.13963
G1 X89.462 Y83.841 E2.1486
G1 X89.825 Y83.019 E2.15757
G1 X90.261 Y82.233 E2.16653
G1 X90.764 Y81.488 E2.1755
G1 X91.332 Y80.791 E2.18448
G1 X91.959 Y80.148 E2.19344
G1 X92.641 Y79.563 E2.2024
G1 X93.372 Y79.04 E2.21137
G1 X94.147 Y78.585 E2.22034
G1 X94.959 Y78.2 E2.2293
G1 X95.802 Y77.889 E2.23827
G1 X96.67 Y77.655 E2.24724
G1 X97.555 Y77.498 E2.25621
G1 X98.71 Y77.413 E2.26776
G1 X99.624 Y77.4 E2.27689
G1 X107.294 Y77.401 E2.35342
G1 X107.995 Y77.411 E2.36041
G0 F6000 X107.998 Y77.211
G1 F1200 X108.904 Y77.264 E2.36947
G1 X109.802 Y77.396 E2.37852
G1 X110.684 Y77.607 E2.38757
G1 X111.545 Y77.895 E2.39663
G1 X112.377 Y78.258 E2.40569
G1 X113.174 Y78.692 E2.41475
G1 X113.929 Y79.195 E2.4238
G1 X114.638 Y79.762 E2.43286
G1 X115.293 Y80.39 E2.44191
G1 X115.891 Y81.072 E2.45096
G1 X116.427 Y81.805 E2.46002
G1 X116.896 Y82.582 E2.46908
G1 X117.109 Y82.996 E2.47372
G1 X117.482 Y83.762 E2.48222
G1 X145.217 Y142.597 E3.13124
G1 X145.498 Y143.213 E3.138
G1 X145.838 Y144.055 E3.14706
G1 X146.102 Y144.923 E3.15611
G1 X146.29 Y145.811 E3.16517
G1 X146.398 Y146.712 E3.17422
G1 X146.426 Y147.619 E3.18328
G1 X146.375 Y148.525 E3.19233
G1 X146.244 Y149.423 E3.20139
G1 X146.034 Y150.306 E3.21044
G1 X145.747 Y151.167 E3.2195
G1 X145.386 Y152 E3.22856
G1 X144.953 Y152.797 E3.23761
G1 X144.452 Y153.554 E3.24666
G1 X143.885 Y154.263 E3.25572
G1 X143.259 Y154.919 E3.26477
G1 X142.577 Y155.518 E3.27383
G1 X141.845 Y156.055 E3.28289
G1 X141.069 Y156.525 E3.29194
G1 X140.254 Y156.925 E3.301
G1 X139.408 Y157.252 E3.31005
G1 X138.535 Y157.502 E3.31911
G1 X137.645 Y157.676 E3.32816
G1 X136.742 Y157.77 E3.33722
G1 X136.286 Y157.787 E3.34177
G1 X135.35 Y157.8 E3.35111
G1 X99.417 Y157.799 E3.70965
G1 X98.719 Y157.789 E3.71662
G1 X97.813 Y157.736 E3.72567
G1 X96.916 Y157.603 E3.73472
G1 X96.033 Y157.392 E3.74378
G1 X95.172 Y157.105 E3.75283
G1 X94.34 Y156.742 E3.76189
G1 X93.544 Y156.308 E3.77094
G1 X92.788 Y155.805 E3.78
G1 X92.08 Y155.237 E3.78905
G1 X91.424 Y154.61 E3.79811
G1 X90.826 Y153.927 E3.80717
G1 X90.291 Y153.194 E3.81622
G1 X89.822 Y152.417 E3.82528
G1 X89.423 Y151.602 E3.83433
G1 X89.098 Y150.755 E3.84338
G1 X88.849 Y149.882 E3.85244
G1 X88.677 Y148.991 E3.8615
G1 X88.571 Y147.769 E3.87374
G1 X88.558 Y147.158 E3.87983
G1 X88.559 Y139.915 E3.95211
G1 X88.569 Y139.218 E3.95906
G1 X88.622 Y138.312 E3.96812
G1 X88.755 Y137.414 E3.97717
G1 X88.857 Y136.944 E3.98197
G1 X89.045 Y136.17 E3.98992
G1 X89.424 Y134.706 E4.00501
G1 X89.992 Y132.231 E4.03035
G1 X90.493 Y129.735 E4.05575
G1 X90.913 Y127.253 E4.08087
G1 X91.272 Y124.716 E4.10643
G1 X91.552 Y122.228 E4.13142
G1 X91.766 Y119.681 E4.15692
G1 X91.908 Y117.145 E4.18226
G1 X91.977 Y114.625 E4.20742
G1 X91.975 Y112.096 E4.23265
G1 X91.9 Y109.526 E4.25831
G1 X91.755 Y107.005 E4.2835
G1 X91.539 Y104.492 E4.30867
G1 X91.249 Y101.964 E4.33406
G1 X90.892 Y99.466 E4.35924
G1 X90.457 Y96.939 E4.38482
G1 X89.964 Y94.494 E4.40971
G1 X89.378 Y91.96 E4.43566
G1 X88.894 Y90.071 E4.45512
G1 X88.707 Y89.182 E4.46418
G1 X88.6 Y88.281 E4.47324
G1 X88.572 Y87.374 E4.48229
G1 X88.624 Y86.468 E4.49135
G1 X88.756 Y85.57 E4.5004
G1 X88.966 Y84.687 E4.50946
G1 X89.253 Y83.826 E4.51852
G1 X89.615 Y82.994 E4.52757
G1 X90.048 Y82.197 E4.53662
G1 X90.55 Y81.441 E4.54567
G1 X91.117 Y80.732 E4.55473
G1 X91.744 Y80.076 E4.56379
G1 X92.426 Y79.477 E4.57284
G1 X93.159 Y78.941 E4.58191
G1 X93.935 Y78.472 E4.59095
G1 X94.75 Y78.072 E4.60001
G1 X95.597 Y77.746 E4.60907
G1 X96.469 Y77.496 E4.61812
G1 X97.36 Y77.323 E4.62718
G1 X98.707 Y77.213 E4.64066
G1 X99.624 Y77.2 E4.64981
G1 X107.297 Y77.201 E4.72637
G1 X107.998 Y77.211 E4.73337
G0 F6000 X108.001 Y77.011
G1 F1200 X108.916 Y77.064 E4.74251
G1 X109.822 Y77.197 E4.75165
G1 X110.714 Y77.408 E4.7608
G1 X111.584 Y77.696 E4.76994
G1 X112.425 Y78.059 E4.77908
G1 X113.232 Y78.493 E4.78822
G1 X113.997 Y78.997 E4.79736
G1 X114.716 Y79.565 E4.80651
G1 X115.383 Y80.194 E4.81565
G1 X115.992 Y80.878 E4.82479
G1 X116.539 Y81.613 E4.83393
G1 X117.02 Y82.393 E4.84308
G1 X117.289 Y82.908 E4.84888
G1 X117.663 Y83.677 E4.85741
G1 X145.399 Y142.514 E5.50645
G1 X145.68 Y143.13 E5.5132
G1 X146.024 Y143.98 E5.52235
G1 X146.292 Y144.856 E5.53149
G1 X146.483 Y145.752 E5.54063
G1 X146.594 Y146.662 E5.54978
G1 X146.627 Y147.577 E5.55892
G1 X146.579 Y148.492 E5.56806
G1 X146.452 Y149.4 E5.57721
G1 X146.246 Y150.293 E5.58635
G1 X145.962 Y151.164 E5.59549
G1 X145.605 Y152.008 E5.60464
G1 X145.174 Y152.817 E5.61378
G1 X144.675 Y153.585 E5.62292
G1 X144.111 Y154.307 E5.63206
G1 X143.486 Y154.977 E5.64121
G1 X142.805 Y155.59 E5.65035
G1 X142.074 Y156.142 E5.65949
G1 X141.297 Y156.627 E5.66863
G1 X140.48 Y157.043 E5.67778
G1 X139.63 Y157.386 E5.68692
G1 X138.754 Y157.654 E5.69606
G1 X137.858 Y157.844 E5.7052
G1 X136.948 Y157.956 E5.71435
G1 X136.289 Y157.987 E5.72093
G1 X135.35 Y158 E5.7303
G1 X99.415 Y157.999 E6.08886
G1 X98.717 Y157.989 E6.09583
G1 X97.802 Y157.936 E6.10498
G1 X96.895 Y157.803 E6.11412
G1 X96.004 Y157.592 E6.12326
G1 X95.134 Y157.304 E6.1324
G1 X94.292 Y156.941 E6.14155
G1 X93.486 Y156.506 E6.15069
G1 X92.72 Y156.003 E6.15983
G1 X92.001 Y155.434 E6.16898
G1 X91.335 Y154.806 E6.17812
G1 X90.726 Y154.121 E6.18726
G1 X90.179 Y153.386 E6.1964
G1 X89.698 Y152.606 E6.20555
G1 X89.287 Y151.787 E6.21469
G1 X88.948 Y150.936 E6.22383
G1 X88.686 Y150.058 E6.23297
G1 X88.501 Y149.16 E6.24212
G1 X88.395 Y148.25 E6.25126
G1 X88.371 Y147.775 E6.25601
G1 X88.358 Y147.158 E6.26217
G1 X88.359 Y139.912 E6.33447
G1 X88.369 Y139.215 E6.34142
G1 X88.422 Y138.301 E6.35056
G1 X88.555 Y137.394 E6.35971
G1 X88.662 Y136.897 E6.36478
G1 X88.852 Y136.12 E6.37276
G1 X89.223 Y134.686 E6.38754
G1 X89.799 Y132.179 E6.41321
G1 X90.297 Y129.695 E6.43849
G1 X90.714 Y127.231 E6.46342
G1 X91.071 Y124.703 E6.4889
G1 X91.355 Y122.187 E6.51416
G1 X91.565 Y119.69 E6.53916
G1 X91.709 Y117.127 E6.56478
G1 X91.777 Y114.62 E6.5898
G1 X91.775 Y112.067 E6.61527
G1 X91.702 Y109.58 E6.6401
G1 X91.556 Y107.032 E6.66557
G1 X91.338 Y104.499 E6.69093
G1 X91.05 Y101.982 E6.71621
G1 X90.693 Y99.49 E6.74133
G1 X90.26 Y96.973 E6.76682
G1 X89.771 Y94.547 E6.79151
G1 X89.184 Y92.006 E6.81753
G1 X88.7 Y90.12 E6.83696
G1 X88.511 Y89.224 E6.8461
G1 X88.402 Y88.314 E6.85524
G1 X88.372 Y87.398 E6.86439
G1 X88.422 Y86.483 E6.87353
G1 X88.551 Y85.576 E6.88267
G1 X88.759 Y84.684 E6.89181
G1 X89.044 Y83.813 E6.90095
G1 X89.404 Y82.97 E6.9101
G1 X89.836 Y82.162 E6.91924
G1 X90.337 Y81.395 E6.92838
G1 X90.903 Y80.674 E6.93753
G1 X91.529 Y80.005 E6.94667
G1 X92.212 Y79.394 E6.95582
G1 X92.945 Y78.844 E6.96496
G1 X93.723 Y78.361 E6.9741
G1 X94.541 Y77.947 E6.98325
G1 X95.391 Y77.605 E6.99239
G1 X96.268 Y77.34 E7.00153
G1 X97.165 Y77.152 E7.01067
G1 X98.074 Y77.042 E7.01981
G1 X98.704 Y77.013 E7.0261
G1 X99.624 Y77 E7.03528
G1 X107.3 Y77.001 E7.11187
G1 X108.001 Y77.011 E7.11887
G1 F1500 E0.61887
;MESH:Numero_7.STL
G0 F6000 X107.718 Y86.835
G0 X107.718 Y87.72
G0 X135.354 Y147
;TYPE:WALL-INNER
G1 F1500 E7.11887
G1 F1200 X135.199 Y147 E7.12042
G1 X135.198 Y147 E7.12043
G1 X99.358 Y147 E7.47804
G1 X99.358 Y139.856 E7.54932
G1 X123.917 Y139.856 E7.79437
G1 X123.918 Y139.856 E7.79438
G1 X124.073 Y139.856 E7.79593
G1 X124.007 Y139.715 E7.79683
G1 X99.711 Y88.141 E8.36568
G1 X99.645 Y88 E8.36723
G1 X99.8 Y88 E8.36812
G1 X99.801 Y88 E8.36813
G1 X107.54 Y88 E8.44535
G1 X135.288 Y146.859 E9.09464
G1 X135.354 Y147 E9.09554
G0 F6000 X135.595 Y147.043
G1 F1200 X135.644 Y147.147 E9.09669
G1 X135.669 Y147.2 E9.09727
G1 X135.644 Y147.2
G1 X135.529 Y147.2 E9.09806
G1 X99.158 Y147.2 E9.46098
G1 X99.158 Y139.656 E9.53625
G1 X123.602 Y139.656 E9.78015
G1 X123.603 Y139.656 E9.78016
G1 X123.758 Y139.656 E9.78171
G1 X123.692 Y139.515 E9.78261
G1 X99.396 Y87.941 E10.35146
G1 X99.33 Y87.8 E10.35301
G1 X99.485 Y87.8 E10.3539
G1 X99.486 Y87.8 E10.35391
G1 X107.667 Y87.8 E10.43554
G1 X135.595 Y147.043 E11.08907
G0 F6000 X135.985 Y147.4
;TYPE:WALL-OUTER
G1 F1200 X98.958 Y147.4 E11.45852
G1 X98.958 Y139.456 E11.53779
G1 X123.443 Y139.456 E11.7821
G1 X99.015 Y87.6 E12.35406
G1 X107.794 Y87.6 E12.44165
G1 X135.825 Y147.062 E13.09759
G1 X135.985 Y147.4 E13.10132
G0 F6000 X135.743 Y147.247
G0 X135.218 Y146.735
G0 X135.056 Y146.81
;TYPE:SKIN
G1 F1200 X99.548 Y146.81 E13.45562
G1 X99.548 Y140.046 E13.52311
G1 X124.373 Y140.046 E13.77082
G1 X99.943 Y88.19 E14.34278
G1 X107.421 Y88.19 E14.4174
G1 X135.056 Y146.81 E15.06405
G1 F1500 E8.56405
G0 F6000 X135.218 Y146.735
G0 X135.215 Y146.893
G0 X99.777 Y146.99
G0 X99.777 Y146.729
G1 F1500 E15.06405
G1 F1200 X99.627 Y146.579 E15.06617
G0 F6000 X99.627 Y146.296
G1 F1200 X100.06 Y146.729 E15.07228
G0 F6000 X100.343 Y146.729
G1 F1200 X99.627 Y146.014 E15.08237
G0 F6000 X99.627 Y145.731
G1 F1200 X100.626 Y146.729 E15.09646
G0 F6000 X100.909 Y146.729
G1 F1200 X99.627 Y145.448 E15.11455
G0 F6000 X99.627 Y145.165
G1 F1200 X101.191 Y146.729 E15.13662
G0 F6000 X101.474 Y146.729
G1 F1200 X99.627 Y144.882 E15.16268
G0 F6000 X99.627 Y144.599
G1 F1200 X101.757 Y146.729 E15.19274
G0 F6000 X102.04 Y146.729
G1 F1200 X99.627 Y144.316 E15.22679
G0 F6000 X99.627 Y144.034
G1 F1200 X102.323 Y146.729 E15.26482
G0 F6000 X102.606 Y146.729
G1 F1200 X99.627 Y143.751 E15.30685
G0 F6000 X99.627 Y143.468
G1 F1200 X102.888 Y146.729 E15.35287
G0 F6000 X103.171 Y146.729
G1 F1200 X99.627 Y143.185 E15.40288
G0 F6000 X99.627 Y142.902
G1 F1200 X103.454 Y146.729 E15.45688
G0 F6000 X103.737 Y146.729
G1 F1200 X99.627 Y142.619 E15.51488
G0 F6000 X99.627 Y142.337
G1 F1200 X104.02 Y146.729 E15.57686
G0 F6000 X104.303 Y146.729
G1 F1200 X99.627 Y142.054 E15.64284
G0 F6000 X99.627 Y141.771
G1 F1200 X104.586 Y146.729 E15.71281
G0 F6000 X104.868 Y146.729
G1 F1200 X99.627 Y141.488 E15.78676
G0 F6000 X99.627 Y141.205
G1 F1200 X105.151 Y146.729 E15.86471
G0 F6000 X105.434 Y146.729
G1 F1200 X99.627 Y140.922 E15.94666
G0 F6000 X99.627 Y140.64
G1 F1200 X105.717 Y146.729 E16.03259
G0 F6000 X106 Y146.729
G1 F1200 X99.627 Y140.357 E16.12251
G0 F6000 X99.678 Y140.125
G1 F1200 X106.283 Y146.729 E16.21571
G0 F6000 X106.565 Y146.729
G1 F1200 X99.961 Y140.125 E16.30889
G0 F6000 X100.244 Y140.125
G1 F1200 X106.848 Y146.729 E16.40208
G0 F6000 X107.131 Y146.729
G1 F1200 X100.527 Y140.125 E16.49527
G0 F6000 X100.81 Y140.125
G1 F1200 X107.414 Y146.729 E16.58846
G0 F6000 X107.697 Y146.729
G1 F1200 X101.092 Y140.125 E16.68166
G0 F6000 X101.375 Y140.125
G1 F1200 X107.98 Y146.729 E16.77486
G0 F6000 X108.262 Y146.729
G1 F1200 X101.658 Y140.125 E16.86805
G0 F6000 X101.941 Y140.125
G1 F1200 X108.545 Y146.729 E16.96124
G0 F6000 X108.828 Y146.729
G1 F1200 X102.224 Y140.125 E17.05443
G0 F6000 X102.507 Y140.125
G1 F1200 X109.111 Y146.729 E17.14762
G0 F6000 X109.394 Y146.729
G1 F1200 X102.789 Y140.125 E17.24081
G0 F6000 X103.072 Y140.125
G1 F1200 X109.677 Y146.729 E17.33401
G0 F6000 X109.96 Y146.729
G1 F1200 X103.355 Y140.125 E17.42721
G0 F6000 X103.638 Y140.125
G1 F1200 X110.242 Y146.729 E17.52039
G0 F6000 X110.525 Y146.729
G1 F1200 X103.921 Y140.125 E17.61358
G0 F6000 X104.204 Y140.125
G1 F1200 X110.808 Y146.729 E17.70677
G0 F6000 X111.091 Y146.729
G1 F1200 X104.487 Y140.125 E17.79996
G0 F6000 X104.769 Y140.125
G1 F1200 X111.374 Y146.729 E17.89316
G0 F6000 X111.657 Y146.729
G1 F1200 X105.052 Y140.125 E17.98636
G0 F6000 X105.335 Y140.125
G1 F1200 X111.939 Y146.729 E18.07955
G0 F6000 X112.222 Y146.729
G1 F1200 X105.618 Y140.125 E18.17274
G0 F6000 X105.901 Y140.125
G1 F1200 X112.505 Y146.729 E18.26593
G0 F6000 X112.788 Y146.729
G1 F1200 X106.184 Y140.125 E18.35911
G0 F6000 X106.466 Y140.125
G1 F1200 X113.071 Y146.729 E18.45231
G0 F6000 X113.354 Y146.729
G1 F1200 X106.749 Y140.125 E18.54551
G0 F6000 X107.032 Y140.125
G1 F1200 X113.637 Y146.729 E18.6387
G0 F6000 X113.919 Y146.729
G1 F1200 X107.315 Y140.125 E18.73189
G0 F6000 X107.598 Y140.125
G1 F1200 X114.202 Y146.729 E18.82508
G0 F6000 X114.485 Y146.729
G1 F1200 X107.881 Y140.125 E18.91827
G0 F6000 X108.164 Y140.125
G1 F1200 X114.768 Y146.729 E19.01146
G0 F6000 X115.051 Y146.729
G1 F1200 X108.446 Y140.125 E19.10466
G0 F6000 X108.729 Y140.125
G1 F1200 X115.334 Y146.729 E19.19786
G0 F6000 X115.616 Y146.729
G1 F1200 X109.012 Y140.125 E19.29105
G0 F6000 X109.295 Y140.125
G1 F1200 X115.899 Y146.729 E19.38424
G0 F6000 X116.182 Y146.729
G1 F1200 X109.578 Y140.125 E19.47743
G0 F6000 X109.861 Y140.125
G1 F1200 X116.465 Y146.729 E19.57061
G0 F6000 X116.748 Y146.729
G1 F1200 X110.143 Y140.125 E19.66381
G0 F6000 X110.426 Y140.125
G1 F1200 X117.031 Y146.729 E19.75701
G0 F6000 X117.313 Y146.729
G1 F1200 X110.709 Y140.125 E19.8502
G0 F6000 X110.992 Y140.125
G1 F1200 X117.596 Y146.729 E19.94339
G0 F6000 X117.879 Y146.729
G1 F1200 X111.275 Y140.125 E20.03658
G0 F6000 X111.558 Y140.125
