;FLAVOR:Marlin
;TIME:6577
;Filament used: 1.50825m
;Layer height: 0.12
;MINX:89.214
;MINY:77
;MINZ:0.12
;MAXX:145.764
;MAXY:158
;MAXZ:7.44
;Generated with Cura_SteamEngine 4.6.2
M140 S60
M105
M190 S60
M104 S200
M105
M109 S200
M82 ;absolute extrusion mode
; Ender 3 Custom Start G-code
G92 E0 ; Reset Extruder
G28 ; Home all axes
G1 Z2.0 F3000 ; Move Z Axis up little to prevent scratching of Heat Bed
G1 X0.1 Y20 Z0.3 F5000.0 ; Move to start position
G1 X0.1 Y200.0 Z0.3 F1500.0 E15 ; Draw the first line
G1 X0.4 Y200.0 Z0.3 F5000.0 ; Move to side a little
G1 X0.4 Y20 Z0.3 F1500.0 E30 ; Draw the second line
G92 E0 ; Reset Extruder
G1 Z2.0 F3000 ; Move Z Axis up little to prevent scratching of Heat Bed
G1 X5 Y20 Z0.3 F5000.0 ; Move over to prevent blob squish
G92 E0
G92 E0
G1 F1500 E-6.5
;LAYER_COUNT:62
;LAYER:0
M107
G0 F6000 X118.395 Y77.424 Z0.12
;TYPE:SKIRT
G1 F1500 E0
G1 F1200 X119.504 Y77.476 E0.01108
G1 X120.147 Y77.515 E0.01751
G1 X120.73 Y77.567 E0.02335
G1 X121.368 Y77.647 E0.02976
G1 X122.298 Y77.788 E0.03915
G1 X123.004 Y77.904 E0.04629
G1 X123.566 Y78.013 E0.052
G1 X124.049 Y78.124 E0.05694
G1 X124.385 Y78.208 E0.0604
G1 X125.135 Y78.404 E0.06813
G1 X125.762 Y78.577 E0.07462
G1 X126.374 Y78.766 E0.08102
G1 X127.057 Y79.005 E0.08824
G1 X127.577 Y79.199 E0.09377
G1 X128.123 Y79.41 E0.09961
G1 X128.741 Y79.673 E0.10632
G1 X130.173 Y80.343 E0.12209
G1 X130.763 Y80.638 E0.12867
G1 X131.249 Y80.898 E0.13417
G1 X132.017 Y81.35 E0.14306
G1 X132.636 Y81.733 E0.15033
G1 X133.219 Y82.103 E0.15722
G1 X133.712 Y82.437 E0.16316
G1 X134.386 Y82.937 E0.17153
G1 X134.942 Y83.367 E0.17855
G1 X135.464 Y83.782 E0.1852
G1 X135.92 Y84.167 E0.19115
G1 X136.498 Y84.685 E0.1989
G1 X136.729 Y84.899 E0.20204
G1 X137.1 Y85.253 E0.20716
G1 X137.537 Y85.696 E0.21337
G1 X138.468 Y86.706 E0.22707
G1 X138.948 Y87.254 E0.23434
G1 X139.283 Y87.658 E0.23958
G1 X139.439 Y87.856 E0.24209
G1 X139.658 Y88.144 E0.2457
G1 X140.243 Y88.946 E0.25561
G1 X140.628 Y89.49 E0.26226
G1 X140.908 Y89.908 E0.26728
G1 X141.044 Y90.122 E0.26981
G1 X141.234 Y90.433 E0.27345
G1 X141.759 Y91.332 E0.28383
G1 X142.096 Y91.932 E0.2907
G1 X142.354 Y92.423 E0.29623
G1 X142.811 Y93.363 E0.30666
G1 X143.073 Y93.942 E0.313
G1 X143.292 Y94.464 E0.31865
G1 X143.732 Y95.616 E0.33096
G1 X144.023 Y96.439 E0.33967
G1 X144.199 Y96.983 E0.34537
G1 X144.412 Y97.762 E0.35343
G1 X144.602 Y98.518 E0.36121
G1 X144.759 Y99.176 E0.36796
G1 X144.88 Y99.758 E0.37389
G1 X144.974 Y100.315 E0.37953
G1 X145.122 Y101.334 E0.3898
G1 X145.186 Y101.826 E0.39475
G1 X145.247 Y102.45 E0.40101
G1 X145.326 Y103.622 E0.41273
G1 X145.343 Y103.96 E0.41611
G1 X145.364 Y104.582 E0.42231
G1 X145.365 Y105.25 E0.42898
G1 X145.309 Y106.842 E0.44488
G1 X145.269 Y107.488 E0.45133
G1 X145.222 Y108.019 E0.45665
G1 X145.19 Y108.297 E0.45944
G1 X145.143 Y108.652 E0.46302
G1 X144.988 Y109.667 E0.47326
G1 X144.826 Y110.606 E0.48277
G1 X144.616 Y111.665 E0.49354
G1 X144.478 Y112.316 E0.50018
G1 X144.024 Y114.788 E0.52526
G1 X143.632 Y117.331 E0.55094
G1 X143.32 Y119.818 E0.57595
G1 X143.071 Y122.394 E0.60177
G1 X142.9 Y124.888 E0.62671
G1 X142.797 Y127.462 E0.65242
G1 X142.768 Y129.97 E0.67744
G1 X142.814 Y132.918 E0.70686
G1 X142.813 Y146.903 E0.8464
G1 X142.803 Y147.63 E0.85366
G1 X142.751 Y148.527 E0.86262
G1 X142.619 Y149.416 E0.87159
G1 X142.408 Y150.29 E0.88056
G1 X142.121 Y151.141 E0.88952
G1 X141.76 Y151.964 E0.89849
G1 X141.326 Y152.751 E0.90746
G1 X140.824 Y153.497 E0.91643
G1 X140.258 Y154.195 E0.9254
G1 X139.633 Y154.84 E0.93436
G1 X138.952 Y155.427 E0.94333
G1 X138.222 Y155.95 E0.95229
G1 X137.448 Y156.407 E0.96126
G1 X136.637 Y156.794 E0.97023
G1 X135.794 Y157.107 E0.9792
G1 X134.927 Y157.343 E0.98816
G1 X134.043 Y157.502 E0.99713
G1 X132.988 Y157.587 E1.00769
G1 X132.384 Y157.6 E1.01372
G1 X101.149 Y157.599 E1.32538
G1 X100.451 Y157.59 E1.33235
G1 X99.554 Y157.539 E1.34131
G1 X98.665 Y157.408 E1.35028
G1 X97.791 Y157.198 E1.35925
G1 X96.939 Y156.911 E1.36822
G1 X96.116 Y156.55 E1.37718
G1 X95.328 Y156.118 E1.38615
G1 X94.582 Y155.617 E1.39512
G1 X93.884 Y155.051 E1.40408
G1 X93.238 Y154.426 E1.41305
G1 X92.651 Y153.746 E1.42202
G1 X92.126 Y153.016 E1.43099
G1 X91.669 Y152.243 E1.43995
G1 X91.282 Y151.432 E1.44891
G1 X90.968 Y150.59 E1.45788
G1 X90.731 Y149.723 E1.46685
G1 X90.571 Y148.838 E1.47582
G1 X90.485 Y147.764 E1.48657
G1 X90.472 Y147.158 E1.49262
G1 X90.473 Y139.918 E1.56486
G1 X90.483 Y139.221 E1.57182
G1 X90.536 Y138.324 E1.58078
G1 X90.65 Y137.529 E1.5888
G1 X90.886 Y136.262 E1.60166
G1 X90.953 Y135.932 E1.60502
G1 X91.383 Y133.436 E1.63029
G1 X91.746 Y130.907 E1.65578
G1 X92.031 Y128.416 E1.6808
G1 X92.253 Y125.837 E1.70663
G1 X92.398 Y123.339 E1.7316
G1 X92.473 Y120.768 E1.75726
G1 X92.475 Y118.229 E1.78259
G1 X92.406 Y115.688 E1.80796
G1 X92.265 Y113.152 E1.8333
G1 X92.054 Y110.649 E1.85836
G1 X91.768 Y108.1 E1.88396
G1 X91.407 Y105.547 E1.90969
G1 X90.99 Y103.1 E1.93445
G1 X90.473 Y100.514 E1.96077
G1 X90.146 Y99.044 E1.97579
G1 X89.884 Y97.912 E1.98739
G1 X89.72 Y97.029 E1.99635
G1 X89.628 Y95.938 E2.00727
G1 X89.614 Y95.302 E2.01362
G1 X89.615 Y88.047 E2.08601
G1 X89.624 Y87.374 E2.09273
G1 X89.676 Y86.477 E2.10169
G1 X89.807 Y85.588 E2.11066
G1 X90.017 Y84.714 E2.11963
G1 X90.304 Y83.862 E2.1286
G1 X90.666 Y83.04 E2.13756
G1 X91.099 Y82.252 E2.14653
G1 X91.6 Y81.506 E2.1555
G1 X92.166 Y80.808 E2.16447
G1 X92.792 Y80.163 E2.17343
G1 X93.472 Y79.576 E2.1824
G1 X94.202 Y79.052 E2.19136
G1 X94.975 Y78.594 E2.20033
G1 X95.787 Y78.208 E2.2093
G1 X96.629 Y77.895 E2.21826
G1 X97.496 Y77.658 E2.22723
G1 X98.38 Y77.499 E2.23619
G1 X99.44 Y77.413 E2.24681
G1 X100.044 Y77.4 E2.25283
G1 X117.149 Y77.401 E2.42351
G1 X118.395 Y77.424 E2.43594
G0 F6000 X118.405 Y77.224
G1 F1200 X119.517 Y77.276 E2.44705
G1 X120.16 Y77.315 E2.45348
G1 X120.754 Y77.368 E2.45943
G1 X121.09 Y77.408 E2.4628
G1 X121.397 Y77.45 E2.4659
G1 X122.33 Y77.59 E2.47531
G1 X123.036 Y77.706 E2.48245
G1 X123.61 Y77.817 E2.48828
G1 X124.435 Y78.014 E2.49675
G1 X125.189 Y78.211 E2.50452
G1 X125.816 Y78.384 E2.51101
G1 X126.439 Y78.577 E2.51752
G1 X127.126 Y78.818 E2.52478
G1 X127.649 Y79.012 E2.53035
G1 X128.195 Y79.223 E2.53619
G1 X128.826 Y79.492 E2.54304
G1 X130.262 Y80.164 E2.55885
G1 X130.852 Y80.459 E2.56544
G1 X131.348 Y80.724 E2.57105
G1 X132.122 Y81.18 E2.58001
G1 X132.743 Y81.565 E2.5873
G1 X133.326 Y81.935 E2.59419
G1 X133.829 Y82.275 E2.60025
G1 X134.508 Y82.779 E2.60869
G1 X135.067 Y83.21 E2.61573
G1 X135.589 Y83.625 E2.62238
G1 X136.053 Y84.018 E2.62845
G1 X136.867 Y84.754 E2.6394
G1 X137.238 Y85.108 E2.64452
G1 X137.684 Y85.56 E2.65085
G1 X138.618 Y86.574 E2.66461
G1 X139.098 Y87.122 E2.67188
G1 X139.441 Y87.535 E2.67724
G1 X139.597 Y87.733 E2.67975
G1 X139.819 Y88.026 E2.68342
G1 X140.406 Y88.831 E2.69336
G1 X140.791 Y89.375 E2.70001
G1 X141.077 Y89.8 E2.70512
G1 X141.213 Y90.014 E2.70765
G1 X141.407 Y90.332 E2.71137
G1 X141.933 Y91.234 E2.72179
G1 X142.27 Y91.834 E2.72865
G1 X142.534 Y92.334 E2.7343
G1 X142.853 Y92.983 E2.74151
G1 X142.993 Y93.281 E2.7448
G1 X143.255 Y93.86 E2.75114
G1 X143.478 Y94.392 E2.75689
G1 X143.921 Y95.549 E2.76926
G1 X144.212 Y96.372 E2.77797
G1 X144.391 Y96.927 E2.78378
G1 X144.606 Y97.713 E2.79192
G1 X144.797 Y98.472 E2.79972
G1 X144.954 Y99.13 E2.80647
G1 X145.077 Y99.723 E2.81252
G1 X145.172 Y100.286 E2.81821
G1 X145.32 Y101.308 E2.82852
G1 X145.384 Y101.8 E2.83347
G1 X145.447 Y102.436 E2.83985
G1 X145.526 Y103.608 E2.85157
G1 X145.543 Y103.953 E2.85501
G1 X145.564 Y104.575 E2.86122
G1 X145.565 Y105.257 E2.86803
G1 X145.523 Y106.552 E2.88096
G1 X145.508 Y106.855 E2.88398
G1 X145.468 Y107.501 E2.89044
G1 X145.42 Y108.042 E2.89586
G1 X145.388 Y108.32 E2.89865
G1 X145.34 Y108.681 E2.90229
G1 X145.185 Y109.7 E2.91257
G1 X145.023 Y110.645 E2.92214
G1 X144.812 Y111.706 E2.93293
G1 X144.674 Y112.354 E2.93954
G1 X144.222 Y114.821 E2.96457
G1 X143.832 Y117.348 E2.99008
G1 X143.517 Y119.863 E3.01537
G1 X143.272 Y122.39 E3.04071
G1 X143.1 Y124.91 E3.06591
G1 X142.997 Y127.472 E3.09149
G1 X142.968 Y129.968 E3.1164
G1 X143.014 Y132.918 E3.14584
G1 X143.013 Y146.906 E3.28541
G1 X143.003 Y147.633 E3.29267
G1 X142.951 Y148.539 E3.30172
G1 X142.819 Y149.437 E3.31078
G1 X142.608 Y150.319 E3.31983
G1 X142.321 Y151.18 E3.32888
G1 X141.959 Y152.012 E3.33794
G1 X141.525 Y152.809 E3.34699
G1 X141.022 Y153.565 E3.35605
G1 X140.455 Y154.274 E3.36511
G1 X139.828 Y154.93 E3.37416
G1 X139.146 Y155.528 E3.38322
G1 X138.413 Y156.064 E3.39228
G1 X137.637 Y156.533 E3.40132
G1 X136.822 Y156.932 E3.41038
G1 X135.974 Y157.258 E3.41944
G1 X135.102 Y157.508 E3.42849
G1 X134.211 Y157.68 E3.43755
G1 X132.994 Y157.787 E3.44974
G1 X132.384 Y157.8 E3.45583
G1 X101.146 Y157.799 E3.76752
G1 X100.448 Y157.79 E3.77449
G1 X99.542 Y157.738 E3.78354
G1 X98.644 Y157.607 E3.7926
G1 X97.761 Y157.398 E3.80165
G1 X96.9 Y157.111 E3.81071
G1 X96.068 Y156.749 E3.81976
G1 X95.27 Y156.316 E3.82882
G1 X94.514 Y155.815 E3.83787
G1 X93.805 Y155.248 E3.84693
G1 X93.148 Y154.622 E3.85598
G1 X92.55 Y153.94 E3.86503
G1 X92.013 Y153.208 E3.87409
G1 X91.543 Y152.431 E3.88315
G1 X91.143 Y151.617 E3.8922
G1 X90.817 Y150.77 E3.90126
G1 X90.566 Y149.898 E3.91031
G1 X90.393 Y149.007 E3.91937
G1 X90.285 Y147.769 E3.93177
G1 X90.272 Y147.158 E3.93787
G1 X90.273 Y139.915 E4.01014
G1 X90.283 Y139.218 E4.01709
G1 X90.336 Y138.312 E4.02615
G1 X90.454 Y137.493 E4.0344
G1 X90.69 Y136.222 E4.0473
G1 X90.757 Y135.891 E4.05067
G1 X91.186 Y133.407 E4.07582
G1 X91.545 Y130.893 E4.10116
G1 X91.834 Y128.375 E4.12645
G1 X92.052 Y125.845 E4.15179
G1 X92.198 Y123.321 E4.17702
G1 X92.273 Y120.762 E4.20256
G1 X92.275 Y118.233 E4.2278
G1 X92.206 Y115.704 E4.25304
G1 X92.066 Y113.181 E4.27825
G1 X91.85 Y110.615 E4.30395
G1 X91.573 Y108.152 E4.32868
G1 X91.214 Y105.61 E4.3543
G1 X90.786 Y103.099 E4.37971
G1 X90.285 Y100.591 E4.40523
G1 X89.95 Y99.087 E4.42061
G1 X89.689 Y97.957 E4.43218
G1 X89.523 Y97.065 E4.44123
G1 X89.429 Y95.944 E4.45246
G1 X89.414 Y95.302 E4.45886
G1 X89.415 Y88.044 E4.53128
G1 X89.424 Y87.371 E4.538
G1 X89.476 Y86.465 E4.54705
G1 X89.608 Y85.567 E4.55611
G1 X89.818 Y84.684 E4.56517
G1 X90.105 Y83.824 E4.57421
G1 X90.467 Y82.991 E4.58328
G1 X90.9 Y82.194 E4.59233
G1 X91.402 Y81.438 E4.60138
G1 X91.969 Y80.729 E4.61044
G1 X92.596 Y80.073 E4.6195
G1 X93.278 Y79.474 E4.62855
G1 X94.01 Y78.938 E4.6376
G1 X94.787 Y78.469 E4.64666
G1 X95.602 Y78.069 E4.65572
G1 X96.449 Y77.743 E4.66478
G1 X97.321 Y77.493 E4.67383
G1 X98.212 Y77.32 E4.68288
G1 X99.434 Y77.213 E4.69512
G1 X100.044 Y77.2 E4.70121
G1 X117.152 Y77.201 E4.87192
G1 X118.405 Y77.224 E4.88442
G0 F6000 X118.414 Y77.024
G1 F1200 X119.529 Y77.076 E4.89556
G1 X120.172 Y77.115 E4.90199
G1 X120.777 Y77.17 E4.90805
G1 X121.427 Y77.252 E4.91458
G1 X122.362 Y77.393 E4.92402
G1 X123.068 Y77.509 E4.93116
G1 X123.653 Y77.622 E4.9371
G1 X124.146 Y77.736 E4.94215
G1 X124.486 Y77.821 E4.94565
G1 X125.242 Y78.018 E4.95344
G1 X125.869 Y78.191 E4.95993
G1 X126.504 Y78.388 E4.96657
G1 X127.196 Y78.63 E4.97388
G1 X127.721 Y78.826 E4.97947
G1 X128.267 Y79.037 E4.98532
G1 X128.91 Y79.31 E4.99229
G1 X130.352 Y79.986 E5.00818
G1 X130.942 Y80.281 E5.01476
G1 X131.447 Y80.551 E5.02047
G1 X132.227 Y81.01 E5.0295
G1 X132.85 Y81.396 E5.03682
G1 X133.433 Y81.766 E5.04371
G1 X133.946 Y82.113 E5.04988
G1 X134.63 Y82.62 E5.05838
G1 X135.191 Y83.054 E5.06546
G1 X135.713 Y83.469 E5.07211
G1 X136.187 Y83.869 E5.0783
G1 X137.006 Y84.609 E5.08931
G1 X137.377 Y84.963 E5.09443
G1 X137.831 Y85.424 E5.10089
G1 X138.573 Y86.225 E5.11178
G1 X138.768 Y86.443 E5.1147
G1 X139.248 Y86.991 E5.12197
G1 X139.598 Y87.411 E5.12742
G1 X139.754 Y87.609 E5.12994
G1 X139.981 Y87.908 E5.13368
G1 X140.57 Y88.715 E5.14365
G1 X140.955 Y89.259 E5.1503
G1 X141.246 Y89.693 E5.15552
G1 X141.382 Y89.907 E5.15805
G1 X141.579 Y90.231 E5.16183
G1 X142.108 Y91.136 E5.17229
G1 X142.445 Y91.736 E5.17916
G1 X142.713 Y92.246 E5.18491
G1 X143.032 Y92.895 E5.19212
G1 X143.175 Y93.198 E5.19546
G1 X143.437 Y93.777 E5.20181
G1 X143.665 Y94.32 E5.20768
G1 X144.004 Y95.197 E5.21706
G1 X144.109 Y95.483 E5.2201
G1 X144.4 Y96.306 E5.22881
G1 X144.583 Y96.871 E5.23474
G1 X144.645 Y97.084 E5.23695
G1 X144.8 Y97.664 E5.24294
G1 X144.991 Y98.425 E5.25077
G1 X145.148 Y99.083 E5.25752
G1 X145.274 Y99.688 E5.26369
G1 X145.37 Y100.257 E5.26945
G1 X145.518 Y101.283 E5.27979
G1 X145.582 Y101.775 E5.28474
G1 X145.646 Y102.423 E5.29124
G1 X145.725 Y103.595 E5.30296
G1 X145.743 Y103.947 E5.30648
G1 X145.764 Y104.569 E5.31269
G1 X145.764 Y105.263 E5.31961
G1 X145.708 Y106.867 E5.33562
G1 X145.668 Y107.513 E5.34208
G1 X145.619 Y108.065 E5.34761
G1 X145.587 Y108.343 E5.3504
G1 X145.538 Y108.711 E5.35411
G1 X145.382 Y109.733 E5.36442
G1 X145.219 Y110.683 E5.37404
G1 X145.007 Y111.748 E5.38488
G1 X144.876 Y112.365 E5.39117
G1 X144.414 Y114.884 E5.41672
G1 X144.031 Y117.37 E5.44182
G1 X143.717 Y119.87 E5.46696
G1 X143.473 Y122.391 E5.49224
G1 X143.299 Y124.93 E5.51763
G1 X143.197 Y127.482 E5.54311
G1 X143.168 Y129.968 E5.56792
G1 X143.214 Y132.918 E5.59736
G1 X143.213 Y146.908 E5.73695
G1 X143.203 Y147.635 E5.74421
G1 X143.15 Y148.55 E5.75335
G1 X143.018 Y149.457 E5.7625
G1 X142.808 Y150.349 E5.77164
G1 X142.52 Y151.219 E5.78079
G1 X142.158 Y152.06 E5.78992
G1 X141.723 Y152.867 E5.79907
G1 X141.22 Y153.633 E5.80821
G1 X140.652 Y154.352 E5.81736
G1 X140.024 Y155.019 E5.8265
G1 X139.34 Y155.628 E5.83564
G1 X138.605 Y156.176 E5.84478
G1 X137.825 Y156.657 E5.85393
G1 X137.007 Y157.069 E5.86307
G1 X136.155 Y157.408 E5.87222
G1 X135.278 Y157.671 E5.88135
G1 X134.38 Y157.856 E5.8905
G1 X133.47 Y157.963 E5.89964
G1 X132.999 Y157.987 E5.90435
G1 X132.384 Y158 E5.91049
G1 X101.144 Y157.999 E6.2222
G1 X100.446 Y157.99 E6.22916
G1 X99.531 Y157.938 E6.23831
G1 X98.624 Y157.807 E6.24745
G1 X97.732 Y157.597 E6.2566
G1 X96.862 Y157.31 E6.26574
G1 X96.02 Y156.949 E6.27488
G1 X95.213 Y156.515 E6.28402
G1 X94.446 Y156.013 E6.29317
G1 X93.727 Y155.445 E6.30231
G1 X93.059 Y154.817 E6.31146
G1 X92.449 Y154.134 E6.3206
G1 X91.901 Y153.4 E6.32974
G1 X91.419 Y152.62 E6.33889
G1 X91.007 Y151.802 E6.34803
G1 X90.667 Y150.951 E6.35717
G1 X90.404 Y150.073 E6.36631
G1 X90.217 Y149.176 E6.37546
G1 X90.11 Y148.266 E6.3846
G1 X90.085 Y147.775 E6.38951
G1 X90.072 Y147.158 E6.39566
G1 X90.073 Y139.912 E6.46796
G1 X90.083 Y139.215 E6.47492
G1 X90.136 Y138.301 E6.48405
G1 X90.257 Y137.456 E6.49257
G1 X90.494 Y136.183 E6.50549
G1 X90.56 Y135.857 E6.50881
G1 X90.987 Y133.382 E6.53387
G1 X91.346 Y130.875 E6.55914
G1 X91.637 Y128.333 E6.58467
G1 X91.851 Y125.851 E6.60953
G1 X92 Y123.27 E6.63533
G1 X92.073 Y120.791 E6.66007
G1 X92.075 Y118.239 E6.68554
G1 X92.006 Y115.72 E6.71068
G1 X91.865 Y113.174 E6.73612
G1 X91.653 Y110.652 E6.76138
G1 X91.373 Y108.169 E6.78631
G1 X91.015 Y105.633 E6.81186
G1 X90.591 Y103.146 E6.83704
G1 X90.086 Y100.617 E6.86277
G1 X89.755 Y99.13 E6.87797
G1 X89.494 Y98.002 E6.88952
G1 X89.327 Y97.101 E6.89867
G1 X89.229 Y95.95 E6.91019
G1 X89.214 Y95.302 E6.91666
G1 X89.215 Y88.042 E6.9891
G1 X89.224 Y87.369 E6.99582
G1 X89.276 Y86.454 E7.00496
G1 X89.408 Y85.547 E7.01411
G1 X89.618 Y84.655 E7.02325
G1 X89.906 Y83.785 E7.03239
G1 X90.268 Y82.943 E7.04154
G1 X90.702 Y82.136 E7.05068
G1 X91.204 Y81.37 E7.05982
G1 X91.772 Y80.651 E7.06896
G1 X92.4 Y79.984 E7.0781
G1 X93.084 Y79.374 E7.08725
G1 X93.819 Y78.826 E7.0964
G1 X94.598 Y78.345 E7.10553
G1 X95.417 Y77.933 E7.11468
G1 X96.268 Y77.594 E7.12382
G1 X97.145 Y77.33 E7.13296
G1 X98.043 Y77.144 E7.14211
G1 X98.953 Y77.037 E7.15125
G1 X99.429 Y77.013 E7.15601
G1 X100.044 Y77 E7.16215
G1 X117.154 Y77.001 E7.33287
G1 X118.414 Y77.024 E7.34544
G1 F1500 E0.84544
;MESH:Numero_3.STL
G0 F6000 X119.587 Y86.924
G0 X119.546 Y87.809
G0 X122.932 Y88.854
G0 X124.371 Y89.39
G0 X126.004 Y90.178
G0 X127.508 Y91.107
G0 X128.849 Y92.141
G0 X129.78 Y93.002
G0 X130.902 Y94.245
G0 X131.932 Y95.659
G0 X132.809 Y97.166
G0 X133.378 Y98.374
G0 X133.968 Y99.983
G0 X134.385 Y101.641
G0 X134.632 Y103.354
G0 X134.714 Y105.044
G0 X134.626 Y106.83
G0 X134.364 Y108.557
G0 X133.939 Y110.164
G0 X133.483 Y111.384
G0 X132.722 Y112.962
G0 X131.834 Y114.391
G0 X130.784 Y115.742
G0 X130.069 Y116.509
