;FLAVOR:Marlin
;TIME:5267
;Filament used: 4.17794m
;Layer height: 0.28
;MINX:72
;MINY:72.014
;MINZ:0.28
;MAXX:147.987
;MAXY:147.986
;MAXZ:29.96
;Generated with Cura_SteamEngine 4.8.0
M140 S60
M105
M190 S60
M104 S200
M105
M109 S200
M82 ;absolute extrusion mode
; Ender 3 Custom Start G-code
G92 E0 ; Reset Extruder
G28 ; Home all axes
G1 Z2.0 F3000 ; Move Z Axis up little to prevent scratching of Heat Bed
G1 X0.1 Y20 Z0.3 F5000.0 ; Move to start position
G1 X0.1 Y200.0 Z0.3 F1500.0 E15 ; Draw the first line
G1 X0.4 Y200.0 Z0.3 F5000.0 ; Move to side a little
G1 X0.4 Y20 Z0.3 F1500.0 E30 ; Draw the second line
G92 E0 ; Reset Extruder
G1 Z2.0 F3000 ; Move Z Axis up little to prevent scratching of Heat Bed
G1 X5 Y20 Z0.3 F5000.0 ; Move over to prevent blob squish
G92 E0
G92 E0
G1 F1500 E-6.5
;LAYER_COUNT:107
;LAYER:0
M107
G0 F6000 X83.113 Y83.167 Z0.28
;TYPE:SKIRT
G1 F1500 E0
G1 F1200 X83.371 Y82.909 E0.01699
G1 X83.77 Y82.522 E0.04287
G1 X84.006 Y82.3 E0.05796
G1 X84.719 Y81.648 E0.10295
G1 X84.988 Y81.41 E0.11967
G1 X85.544 Y80.934 E0.15375
G1 X85.81 Y80.713 E0.16986
G1 X86.707 Y79.994 E0.22339
G1 X86.983 Y79.781 E0.23962
G1 X87.395 Y79.471 E0.26363
G1 X87.665 Y79.274 E0.27919
G1 X88.498 Y78.686 E0.32667
G1 X88.944 Y78.383 E0.35178
G1 X89.343 Y78.12 E0.37403
G1 X89.641 Y77.93 E0.39049
G1 X90.548 Y77.373 E0.44005
G1 X90.841 Y77.199 E0.45592
G1 X91.43 Y76.862 E0.48751
G1 X91.733 Y76.696 E0.5036
G1 X92.582 Y76.245 E0.54837
G1 X92.854 Y76.105 E0.56261
G1 X93.493 Y75.788 E0.59583
G1 X93.844 Y75.621 E0.61393
G1 X94.765 Y75.204 E0.661
G1 X95.049 Y75.08 E0.67543
G1 X95.674 Y74.818 E0.70699
G1 X96.043 Y74.672 E0.72547
G1 X97.079 Y74.281 E0.77703
G1 X97.394 Y74.167 E0.79263
G1 X97.977 Y73.967 E0.82133
G1 X98.291 Y73.865 E0.8367
G1 X99.412 Y73.519 E0.89133
G1 X99.682 Y73.442 E0.9044
G1 X100.231 Y73.291 E0.93092
G1 X100.584 Y73.2 E0.94789
G1 X101.677 Y72.938 E1.00023
G1 X101.992 Y72.867 E1.01526
G1 X102.533 Y72.754 E1.041
G1 X102.879 Y72.688 E1.0574
G1 X104.094 Y72.476 E1.11483
G1 X104.384 Y72.431 E1.12849
G1 X104.945 Y72.351 E1.15488
G1 X105.281 Y72.309 E1.17065
G1 X106.375 Y72.188 E1.2219
G1 X106.74 Y72.154 E1.23897
G1 X107.28 Y72.111 E1.26419
G1 X107.614 Y72.089 E1.27978
G1 X108.828 Y72.031 E1.33637
G1 X109.121 Y72.023 E1.35002
G1 X109.675 Y72.014 E1.37582
G1 X110.004 Y72.014 E1.39114
G1 X111.029 Y72.028 E1.43887
G1 X111.365 Y72.038 E1.45453
G1 X112.043 Y72.068 E1.48613
G1 X112.4 Y72.089 E1.50278
G1 X113.389 Y72.165 E1.54897
G1 X113.803 Y72.203 E1.56833
G1 X114.455 Y72.274 E1.59887
G1 X114.785 Y72.316 E1.61436
G1 X115.903 Y72.475 E1.66694
G1 X116.258 Y72.532 E1.68368
G1 X116.781 Y72.623 E1.7084
G1 X117.103 Y72.684 E1.72366
G1 X118.128 Y72.894 E1.77238
G1 X118.452 Y72.965 E1.78782
G1 X119.103 Y73.119 E1.81897
G1 X119.482 Y73.216 E1.83719
G1 X120.546 Y73.508 E1.88857
G1 X120.852 Y73.597 E1.90341
G1 X121.421 Y73.771 E1.93111
G1 X121.761 Y73.881 E1.94775
G1 X122.788 Y74.232 E1.99829
G1 X123.099 Y74.344 E2.01368
G1 X123.69 Y74.566 E2.04308
G1 X124.026 Y74.698 E2.05989
G1 X125.092 Y75.14 E2.11362
G1 X125.387 Y75.269 E2.12861
G1 X125.866 Y75.485 E2.15308
G1 X126.166 Y75.626 E2.16852
G1 X127.099 Y76.081 E2.21685
G1 X127.558 Y76.314 E2.24082
G1 X128 Y76.548 E2.26411
G1 X128.287 Y76.706 E2.27936
G1 X129.211 Y77.231 E2.32885
G1 X129.504 Y77.403 E2.34467
G1 X130.055 Y77.739 E2.37472
G1 X130.351 Y77.927 E2.39105
G1 X131.38 Y78.602 E2.44835
G1 X131.626 Y78.77 E2.46222
G1 X132.049 Y79.067 E2.48629
G1 X132.311 Y79.257 E2.50136
G1 X133.153 Y79.886 E2.5503
G1 X133.417 Y80.089 E2.56581
G1 X133.92 Y80.489 E2.59573
G1 X134.202 Y80.722 E2.61277
G1 X135.001 Y81.402 E2.66162
G1 X135.25 Y81.62 E2.67703
G1 X135.741 Y82.064 E2.70785
G1 X136 Y82.306 E2.72436
G1 X136.707 Y82.988 E2.7701
G1 X137.087 Y83.367 E2.79509
G1 X137.44 Y83.73 E2.81867
G1 X137.681 Y83.986 E2.83504
G1 X138.388 Y84.761 E2.88389
G1 X138.611 Y85.013 E2.89956
G1 X139.051 Y85.526 E2.93103
G1 X139.271 Y85.79 E2.94703
G1 X139.91 Y86.584 E2.99449
G1 X140.232 Y86.999 E3.01895
G1 X140.521 Y87.384 E3.04136
G1 X140.708 Y87.64 E3.05612
G1 X141.322 Y88.509 E3.10567
G1 X141.504 Y88.775 E3.12068
G1 X141.861 Y89.313 E3.15074
G1 X142.071 Y89.642 E3.16892
G1 X142.686 Y90.647 E3.22378
G1 X142.86 Y90.942 E3.23973
G1 X143.125 Y91.405 E3.26457
G1 X143.293 Y91.71 E3.28078
G1 X143.755 Y92.58 E3.32665
G1 X143.894 Y92.85 E3.34079
G1 X144.217 Y93.501 E3.37463
G1 X144.382 Y93.849 E3.39257
G1 X144.848 Y94.88 E3.44525
G1 X144.987 Y95.206 E3.46175
G1 X145.198 Y95.717 E3.48749
G1 X145.316 Y96.013 E3.50233
G1 X145.711 Y97.054 E3.55418
G1 X145.829 Y97.382 E3.57041
G1 X146.03 Y97.967 E3.59921
G1 X146.134 Y98.285 E3.61479
G1 X146.425 Y99.224 E3.66057
G1 X146.517 Y99.538 E3.6758
G1 X146.701 Y100.201 E3.70784
G1 X146.794 Y100.556 E3.72493
G1 X147.027 Y101.519 E3.77106
G1 X147.132 Y101.985 E3.79331
G1 X147.245 Y102.526 E3.81904
G1 X147.314 Y102.89 E3.83629
G1 X147.517 Y104.057 E3.89145
G1 X147.569 Y104.386 E3.90696
G1 X147.648 Y104.939 E3.93297
G1 X147.693 Y105.288 E3.94936
G1 X147.812 Y106.377 E4.00037
G1 X147.848 Y106.76 E4.01828
G1 X147.893 Y107.337 E4.04523
G1 X147.913 Y107.662 E4.06039
G1 X147.962 Y108.677 E4.10771
G1 X147.973 Y108.998 E4.12266
G1 X147.986 Y109.683 E4.15457
G1 X147.987 Y110.052 E4.17175
G1 X147.973 Y111.015 E4.2166
G1 X147.963 Y111.343 E4.23188
G1 X147.933 Y112.018 E4.26334
G1 X147.912 Y112.371 E4.2798
G1 X147.832 Y113.414 E4.32851
G1 X147.785 Y113.917 E4.35204
G1 X147.729 Y114.424 E4.37579
G1 X147.688 Y114.748 E4.39099
G1 X147.544 Y115.772 E4.43915
G1 X147.47 Y116.247 E4.46153
G1 X147.381 Y116.764 E4.48596
G1 X147.316 Y117.108 E4.50226
G1 X147.113 Y118.098 E4.54932
G1 X147.009 Y118.564 E4.57155
G1 X146.877 Y119.115 E4.59793
G1 X146.796 Y119.435 E4.6133
G1 X146.519 Y120.455 E4.66252
G1 X146.42 Y120.796 E4.67905
G1 X146.218 Y121.455 E4.71115
G1 X146.114 Y121.775 E4.72682
G1 X145.808 Y122.674 E4.77104
G1 X145.707 Y122.96 E4.78516
G1 X145.457 Y123.633 E4.81859
G1 X145.313 Y124 E4.83695
G1 X144.944 Y124.894 E4.88198
G1 X144.794 Y125.244 E4.89971
G1 X144.51 Y125.875 E4.93193
G1 X144.371 Y126.172 E4.9472
G1 X143.936 Y127.065 E4.99346
G1 X143.791 Y127.353 E5.00847
G1 X143.452 Y128 E5.04248
G1 X143.271 Y128.331 E5.06005
G1 X142.81 Y129.142 E5.10349
G1 X142.599 Y129.501 E5.12288
G1 X142.272 Y130.038 E5.15215
G1 X142.09 Y130.326 E5.16802
G1 X141.503 Y131.224 E5.21797
G1 X141.309 Y131.511 E5.2341
G1 X140.941 Y132.037 E5.264
G1 X140.734 Y132.323 E5.28043
G1 X140.097 Y133.174 E5.32993
G1 X139.816 Y133.538 E5.35134
G1 X139.493 Y133.943 E5.37547
G1 X139.269 Y134.214 E5.39184
G1 X138.628 Y134.967 E5.43788
G1 X138.295 Y135.346 E5.46138
G1 X137.932 Y135.746 E5.48653
G1 X137.691 Y136.003 E5.50293
G1 X136.886 Y136.834 E5.55681
G1 X136.629 Y137.091 E5.57373
G1 X136.23 Y137.478 E5.59961
G1 X135.989 Y137.705 E5.61503
G1 X135.275 Y138.357 E5.66005
G1 X135.027 Y138.576 E5.67546
G1 X134.472 Y139.053 E5.70954
G1 X134.19 Y139.288 E5.72663
G1 X133.418 Y139.908 E5.77273
G1 X133.157 Y140.112 E5.78816
G1 X132.594 Y140.536 E5.82098
G1 X132.335 Y140.726 E5.83593
G1 X131.502 Y141.314 E5.88341
G1 X131.067 Y141.61 E5.90791
G1 X130.678 Y141.867 E5.92962
G1 X130.368 Y142.064 E5.94673
G1 X129.449 Y142.628 E5.99693
G1 X129.165 Y142.797 E6.01232
G1 X128.577 Y143.134 E6.04388
G1 X128.263 Y143.307 E6.06057
G1 X127.275 Y143.83 E6.11263
G1 X127.004 Y143.967 E6.12677
G1 X126.485 Y144.223 E6.15371
G1 X126.152 Y144.381 E6.17088
G1 X125.23 Y144.798 E6.218
G1 X124.955 Y144.917 E6.23195
G1 X124.331 Y145.179 E6.26346
G1 X123.957 Y145.328 E6.28221
G1 X122.921 Y145.719 E6.33377
G1 X122.606 Y145.833 E6.34937
G1 X122.023 Y146.033 E6.37807
G1 X121.709 Y146.135 E6.39344
G1 X120.588 Y146.481 E6.44807
G1 X120.313 Y146.559 E6.46138
G1 X119.763 Y146.71 E6.48794
G1 X119.42 Y146.799 E6.50444
G1 X118.329 Y147.061 E6.55668
G1 X118.005 Y147.133 E6.57214
G1 X117.463 Y147.246 E6.59792
G1 X117.121 Y147.312 E6.61414
G1 X115.906 Y147.524 E6.67157
G1 X115.616 Y147.569 E6.68523
G1 X115.055 Y147.649 E6.71162
G1 X114.719 Y147.691 E6.72739
G1 X113.625 Y147.812 E6.77864
G1 X113.26 Y147.846 E6.79571
G1 X112.72 Y147.889 E6.82093
G1 X112.386 Y147.911 E6.83652
G1 X111.172 Y147.969 E6.89311
G1 X110.879 Y147.977 E6.90676
G1 X110.325 Y147.986 E6.93256
G1 X109.996 Y147.986 E6.94788
G1 X108.971 Y147.972 E6.99561
G1 X108.635 Y147.962 E7.01127
G1 X107.957 Y147.932 E7.04287
G1 X107.6 Y147.911 E7.05952
G1 X106.611 Y147.835 E7.10571
G1 X106.197 Y147.797 E7.12507
G1 X105.545 Y147.726 E7.15561
G1 X105.215 Y147.684 E7.1711
G1 X104.097 Y147.525 E7.22368
G1 X103.742 Y147.468 E7.24042
G1 X103.219 Y147.377 E7.26514
G1 X102.897 Y147.316 E7.2804
G1 X101.872 Y147.106 E7.32912
G1 X101.548 Y147.035 E7.34456
G1 X100.897 Y146.881 E7.37571
G1 X100.518 Y146.784 E7.39393
G1 X99.454 Y146.492 E7.44531
G1 X99.148 Y146.403 E7.46015
G1 X98.579 Y146.229 E7.48785
G1 X98.239 Y146.119 E7.50449
G1 X97.212 Y145.768 E7.55503
G1 X96.893 Y145.654 E7.5708
G1 X96.298 Y145.43 E7.60041
G1 X95.974 Y145.302 E7.61663
G1 X94.908 Y144.86 E7.67036
G1 X94.613 Y144.731 E7.68536
G1 X94.134 Y144.515 E7.70982
G1 X93.834 Y144.374 E7.72526
G1 X92.901 Y143.919 E7.77359
G1 X92.442 Y143.686 E7.79756
G1 X92 Y143.452 E7.82085
G1 X91.713 Y143.294 E7.83611
G1 X90.789 Y142.769 E7.88559
G1 X90.496 Y142.597 E7.90141
G1 X89.945 Y142.261 E7.93146
G1 X89.649 Y142.073 E7.94779
G1 X88.62 Y141.398 E8.00509
G1 X88.37 Y141.227 E8.0192
G1 X87.946 Y140.929 E8.04333
G1 X87.689 Y140.743 E8.0581
G1 X86.848 Y140.115 E8.10698
G1 X86.581 Y139.909 E8.12268
G1 X86.077 Y139.508 E8.15267
G1 X85.798 Y139.278 E8.16951
G1 X85 Y138.599 E8.21829
G1 X84.749 Y138.379 E8.23384
G1 X84.257 Y137.934 E8.26473
G1 X83.997 Y137.691 E8.2813
G1 X83.28 Y136.999 E8.3277
G1 X82.913 Y136.633 E8.35183
G1 X82.559 Y136.269 E8.37548
G1 X82.318 Y136.013 E8.39185
G1 X81.612 Y135.239 E8.44063
G1 X81.396 Y134.995 E8.4558
G1 X80.944 Y134.469 E8.4881
G1 X80.696 Y134.169 E8.50622
G1 X79.974 Y133.266 E8.56006
G1 X79.768 Y133.001 E8.57568
G1 X79.479 Y132.616 E8.5981
G1 X79.292 Y132.36 E8.61286
G1 X78.678 Y131.491 E8.66241
G1 X78.494 Y131.221 E8.67762
G1 X78.136 Y130.681 E8.70779
G1 X77.93 Y130.358 E8.72563
G1 X77.314 Y129.353 E8.78052
G1 X77.144 Y129.065 E8.79609
G1 X76.878 Y128.601 E8.82099
G1 X76.704 Y128.285 E8.83779
G1 X76.243 Y127.416 E8.8836
G1 X76.103 Y127.144 E8.89784
G1 X75.78 Y126.492 E8.93172
G1 X75.62 Y126.154 E8.94914
G1 X75.152 Y125.12 E9.00199
G1 X75.013 Y124.794 E9.01849
G1 X74.802 Y124.283 E9.04423
G1 X74.687 Y123.994 E9.05871
G1 X74.032 Y122.271 E9.14455
G1 X73.407 Y120.607 E9.22731
G1 X72.969 Y119.525 E9.28167
G1 X72.89 Y119.325 E9.29168
G1 X72.734 Y118.917 E9.31202
G1 X72.437 Y118.027 E9.35571
G1 X72.217 Y117.115 E9.39939
G1 X72.075 Y116.188 E9.44306
G1 X72.013 Y115.299 E9.48456
G1 X72.004 Y114.981 E9.49937
G1 X72 Y114.67 E9.51386
G1 X72.001 Y105.536 E9.93917
G1 X72.012 Y104.827 E9.97219
G1 X72.067 Y103.891 E10.01585
G1 X72.201 Y102.963 E10.05951
G1 X72.414 Y102.049 E10.10321
G1 X72.806 Y100.891 E10.16014
G1 X73.134 Y100.076 E10.20104
G1 X74.573 Y96.291 E10.3896
G1 X74.684 Y96.009 E10.40371
G1 X75.052 Y95.115 E10.44873
G1 X75.181 Y94.815 E10.46393
G1 X75.475 Y94.157 E10.49749
G1 X75.631 Y93.822 E10.5147
G1 X76.066 Y92.93 E10.56091
G1 X76.212 Y92.641 E10.57599
G1 X76.552 Y91.993 E10.61006
G1 X76.723 Y91.681 E10.62663
G1 X77.182 Y90.871 E10.66998
G1 X77.346 Y90.591 E10.68509
G1 X77.711 Y89.989 E10.71787
G1 X77.911 Y89.671 E10.73536
G1 X78.497 Y88.775 E10.78522
G1 X78.692 Y88.487 E10.80141
G1 X79.061 Y87.96 E10.83137
G1 X79.276 Y87.663 E10.84844
G1 X79.988 Y86.715 E10.90365
G1 X80.184 Y86.462 E10.91855
G1 X80.507 Y86.057 E10.94267
G1 X80.73 Y85.787 E10.95898
G1 X81.37 Y85.035 E11.00496
G1 X81.599 Y84.773 E11.02116
G1 X82.068 Y84.254 E11.05373
G1 X82.309 Y83.997 E11.07014
G1 X83.113 Y83.167 E11.12395
G0 F6000 X83.397 Y83.448
G1 F1200 X83.65 Y83.196 E11.14057
G1 X84.049 Y82.809 E11.16646
G1 X84.276 Y82.596 E11.18095
G1 X84.989 Y81.944 E11.22594
G1 X85.248 Y81.714 E11.24207
G1 X85.804 Y81.238 E11.27615
G1 X86.061 Y81.025 E11.29169
G1 X86.953 Y80.31 E11.34493
G1 X87.224 Y80.101 E11.36086
G1 X87.636 Y79.791 E11.38487
G1 X87.896 Y79.601 E11.39986
G1 X88.729 Y79.013 E11.44734
G1 X89.041 Y78.799 E11.46496
G1 X89.563 Y78.454 E11.4941
G1 X89.85 Y78.271 E11.50994
G1 X90.757 Y77.714 E11.55951
G1 X91.04 Y77.547 E11.57481
G1 X91.629 Y77.21 E11.60641
G1 X91.92 Y77.049 E11.62189
G1 X92.769 Y76.598 E11.66666
G1 X93.031 Y76.463 E11.68038
G1 X93.67 Y76.146 E11.71359
G1 X94.009 Y75.986 E11.73105
G1 X94.93 Y75.569 E11.77813
G1 X95.204 Y75.449 E11.79206
G1 X95.829 Y75.187 E11.82361
G1 X96.184 Y75.046 E11.8414
G1 X97.22 Y74.655 E11.89296
G1 X97.523 Y74.546 E11.90795
G1 X98.106 Y74.346 E11.93665
G1 X98.409 Y74.247 E11.9515
G1 X99.524 Y73.903 E12.00583
G1 X99.788 Y73.828 E12.01861
G1 X100.337 Y73.677 E12.04512
G1 X100.677 Y73.589 E12.06148
G1 X101.77 Y73.327 E12.11381
G1 X102.074 Y73.259 E12.12832
G1 X102.615 Y73.146 E12.15405
G1 X102.948 Y73.082 E12.16984
G1 X104.157 Y72.871 E12.22699
G1 X104.441 Y72.827 E12.24037
G1 X105.002 Y72.747 E12.26676
G1 X105.325 Y72.706 E12.28192
G1 X106.414 Y72.586 E12.33293
G1 X106.772 Y72.552 E12.34968
G1 X107.312 Y72.509 E12.3749
G1 X107.634 Y72.489 E12.38993
G1 X108.841 Y72.431 E12.44619
G1 X109.128 Y72.423 E12.45956
G1 X109.682 Y72.414 E12.48536
G1 X109.999 Y72.414 E12.50012
G1 X111.024 Y72.428 E12.54786
G1 X111.348 Y72.437 E12.56295
G1 X112.026 Y72.467 E12.59455
G1 X112.369 Y72.488 E12.61055
G1 X113.358 Y72.564 E12.65674
G1 X113.765 Y72.601 E12.67577
G1 X114.411 Y72.672 E12.70603
G1 X114.729 Y72.712 E12.72096
G1 X115.841 Y72.87 E12.77326
G1 X116.189 Y72.926 E12.78967
G1 X116.712 Y73.017 E12.81439
G1 X117.023 Y73.076 E12.82913
G1 X118.048 Y73.286 E12.87785
G1 X118.36 Y73.355 E12.89273
G1 X119.011 Y73.509 E12.92388
G1 X119.376 Y73.602 E12.94141
G1 X120.44 Y73.894 E12.99279
G1 X120.735 Y73.979 E13.00709
G1 X121.304 Y74.153 E13.03479
G1 X121.632 Y74.26 E13.05086
G1 X122.659 Y74.611 E13.10139
G1 X122.958 Y74.718 E13.11618
G1 X123.549 Y74.94 E13.14558
G1 X123.873 Y75.067 E13.16178
G1 X124.933 Y75.507 E13.21522
G1 X125.222 Y75.634 E13.22992
G1 X125.701 Y75.85 E13.25439
G1 X125.99 Y75.986 E13.26926
G1 X127.074 Y76.515 E13.32543
G1 X127.371 Y76.668 E13.34099
G1 X127.813 Y76.902 E13.36427
G1 X128.089 Y77.054 E13.37894
G1 X129.013 Y77.579 E13.42843
G1 X129.296 Y77.745 E13.44371
G1 X129.847 Y78.081 E13.47376
G1 X130.132 Y78.261 E13.48945
G1 X131.003 Y78.831 E13.53792
G1 X131.396 Y79.098 E13.56005
G1 X131.819 Y79.395 E13.58412
G1 X132.072 Y79.578 E13.59865
G1 X132.914 Y80.207 E13.64759
G1 X133.168 Y80.403 E13.66253
G1 X133.671 Y80.803 E13.69246
G1 X133.943 Y81.027 E13.70887
G1 X134.742 Y81.707 E13.75772
G1 X134.982 Y81.917 E13.77257
G1 X135.473 Y82.361 E13.80339
G1 X135.722 Y82.594 E13.81927
G1 X136.429 Y83.276 E13.86501
G1 X136.8 Y83.646 E13.88941
G1 X137.153 Y84.009 E13.91299
G1 X137.385 Y84.255 E13.92873
G1 X138.092 Y85.03 E13.97758
G1 X138.307 Y85.273 E13.99269
G1 X138.747 Y85.786 E14.02416
G1 X138.959 Y86.041 E14.0396
G1 X139.703 Y86.968 E14.09495
G1 X139.912 Y87.239 E14.11089
G1 X140.201 Y87.624 E14.1333
G1 X140.381 Y87.871 E14.14753
G1 X140.995 Y88.74 E14.19708
G1 X141.17 Y88.996 E14.21152
G1 X141.527 Y89.534 E14.24158
G1 X141.73 Y89.851 E14.25911
G1 X142.343 Y90.852 E14.31377
G1 X142.513 Y91.141 E14.32938
G1 X142.778 Y91.604 E14.35422
G1 X142.94 Y91.898 E14.36985
G1 X143.402 Y92.768 E14.41572
G1 X143.535 Y93.028 E14.42932
G1 X143.858 Y93.679 E14.46316
G1 X144.018 Y94.014 E14.48045
G1 X144.415 Y94.89 E14.52523
G1 X144.618 Y95.358 E14.54898
G1 X144.829 Y95.869 E14.57473
G1 X144.942 Y96.155 E14.58905
G1 X145.337 Y97.196 E14.64089
G1 X145.451 Y97.512 E14.65653
G1 X145.652 Y98.097 E14.68534
G1 X145.752 Y98.403 E14.70033
G1 X146.043 Y99.342 E14.7461
G1 X146.132 Y99.645 E14.76081
G1 X146.316 Y100.308 E14.79285
G1 X146.405 Y100.65 E14.8093
G1 X146.673 Y101.764 E14.86265
G1 X146.74 Y102.067 E14.8771
G1 X146.853 Y102.608 E14.90284
G1 X146.92 Y102.958 E14.91943
G1 X147.123 Y104.125 E14.97459
G1 X147.173 Y104.443 E14.98958
G1 X147.252 Y104.996 E15.01559
G1 X147.295 Y105.332 E15.03136
G1 X147.414 Y106.416 E15.08214
G1 X147.449 Y106.791 E15.09968
