;FLAVOR:Marlin
;TIME:5295
;Filament used: 4.18067m
;Layer height: 0.28
;MINX:72.013
;MINY:72.014
;MINZ:0.28
;MAXX:147.987
;MAXY:147.986
;MAXZ:29.96
;Generated with Cura_SteamEngine 4.8.0
M140 S60
M105
M190 S60
M104 S200
M105
M109 S200
M82 ;absolute extrusion mode
; Ender 3 Custom Start G-code
G92 E0 ; Reset Extruder
G28 ; Home all axes
G1 Z2.0 F3000 ; Move Z Axis up little to prevent scratching of Heat Bed
G1 X0.1 Y20 Z0.3 F5000.0 ; Move to start position
G1 X0.1 Y200.0 Z0.3 F1500.0 E15 ; Draw the first line
G1 X0.4 Y200.0 Z0.3 F5000.0 ; Move to side a little
G1 X0.4 Y20 Z0.3 F1500.0 E30 ; Draw the second line
G92 E0 ; Reset Extruder
G1 Z2.0 F3000 ; Move Z Axis up little to prevent scratching of Heat Bed
G1 X5 Y20 Z0.3 F5000.0 ; Move over to prevent blob squish
G92 E0
G92 E0
G1 F1500 E-6.5
;LAYER_COUNT:107
;LAYER:0
M107
G0 F6000 X83.114 Y83.166 Z0.28
;TYPE:SKIRT
G1 F1500 E0
G1 F1200 X83.371 Y82.909 E0.01692
G1 X83.77 Y82.522 E0.04281
G1 X84.011 Y82.295 E0.05822
G1 X84.725 Y81.643 E0.10325
G1 X84.973 Y81.424 E0.11865
G1 X85.528 Y80.947 E0.15273
G1 X85.81 Y80.712 E0.16982
G1 X86.582 Y80.092 E0.21593
G1 X86.843 Y79.888 E0.23135
G1 X87.406 Y79.464 E0.26417
G1 X87.665 Y79.274 E0.27913
G1 X88.498 Y78.686 E0.32661
G1 X88.938 Y78.387 E0.35138
G1 X89.338 Y78.123 E0.37369
G1 X89.645 Y77.928 E0.39063
G1 X90.553 Y77.371 E0.44023
G1 X90.835 Y77.203 E0.45551
G1 X91.423 Y76.866 E0.48707
G1 X91.737 Y76.693 E0.50377
G1 X92.725 Y76.17 E0.55582
G1 X92.996 Y76.033 E0.56996
G1 X93.515 Y75.777 E0.59691
G1 X93.848 Y75.619 E0.61407
G1 X94.77 Y75.202 E0.66119
G1 X95.045 Y75.083 E0.67514
G1 X95.669 Y74.821 E0.70665
G1 X96.043 Y74.672 E0.7254
G1 X97.079 Y74.281 E0.77696
G1 X97.394 Y74.167 E0.79256
G1 X97.977 Y73.967 E0.82126
G1 X98.291 Y73.865 E0.83663
G1 X99.412 Y73.519 E0.89126
G1 X99.687 Y73.441 E0.90457
G1 X100.237 Y73.29 E0.93113
G1 X100.58 Y73.201 E0.94763
G1 X101.671 Y72.939 E0.99988
G1 X101.995 Y72.867 E1.01533
G1 X102.537 Y72.754 E1.04111
G1 X102.879 Y72.688 E1.05733
G1 X104.094 Y72.476 E1.11476
G1 X104.384 Y72.431 E1.12843
G1 X104.945 Y72.351 E1.15481
G1 X105.281 Y72.309 E1.17058
G1 X106.375 Y72.188 E1.22183
G1 X106.74 Y72.154 E1.2389
G1 X107.28 Y72.111 E1.26413
G1 X107.614 Y72.089 E1.27971
G1 X108.828 Y72.031 E1.3363
G1 X109.121 Y72.023 E1.34995
G1 X109.675 Y72.014 E1.37575
G1 X110.004 Y72.014 E1.39107
G1 X111.029 Y72.028 E1.43881
G1 X111.365 Y72.038 E1.45446
G1 X112.043 Y72.068 E1.48606
G1 X112.4 Y72.089 E1.50271
G1 X113.389 Y72.165 E1.5489
G1 X113.803 Y72.203 E1.56826
G1 X114.455 Y72.274 E1.5988
G1 X114.785 Y72.316 E1.61429
G1 X115.903 Y72.475 E1.66687
G1 X116.258 Y72.532 E1.68361
G1 X116.781 Y72.623 E1.70833
G1 X117.103 Y72.684 E1.72359
G1 X118.128 Y72.894 E1.77231
G1 X118.452 Y72.965 E1.78776
G1 X119.103 Y73.119 E1.81891
G1 X119.482 Y73.216 E1.83712
G1 X120.546 Y73.508 E1.8885
G1 X120.852 Y73.597 E1.90334
G1 X121.421 Y73.771 E1.93104
G1 X121.761 Y73.881 E1.94768
G1 X122.788 Y74.232 E1.99822
G1 X123.099 Y74.344 E2.01361
G1 X123.69 Y74.566 E2.04301
G1 X124.026 Y74.698 E2.05982
G1 X125.092 Y75.14 E2.11355
G1 X125.387 Y75.269 E2.12855
G1 X125.866 Y75.485 E2.15301
G1 X126.166 Y75.626 E2.16845
G1 X127.099 Y76.081 E2.21678
G1 X127.558 Y76.314 E2.24075
G1 X128 Y76.548 E2.26404
G1 X128.287 Y76.706 E2.2793
G1 X129.211 Y77.231 E2.32878
G1 X129.504 Y77.403 E2.3446
G1 X130.055 Y77.739 E2.37465
G1 X130.351 Y77.927 E2.39098
G1 X131.38 Y78.602 E2.44828
G1 X131.626 Y78.77 E2.46216
G1 X132.049 Y79.067 E2.48622
G1 X132.311 Y79.257 E2.50129
G1 X133.153 Y79.886 E2.55023
G1 X133.417 Y80.089 E2.56574
G1 X133.92 Y80.489 E2.59566
G1 X134.202 Y80.722 E2.6127
G1 X135.001 Y81.402 E2.66155
G1 X135.25 Y81.62 E2.67696
G1 X135.741 Y82.064 E2.70779
G1 X136.002 Y82.308 E2.72442
G1 X136.72 Y83.001 E2.77089
G1 X137.087 Y83.367 E2.79502
G1 X137.44 Y83.73 E2.8186
G1 X137.681 Y83.986 E2.83497
G1 X138.388 Y84.761 E2.88382
G1 X138.611 Y85.013 E2.89949
G1 X139.051 Y85.526 E2.93096
G1 X139.271 Y85.79 E2.94696
G1 X139.91 Y86.584 E2.99442
G1 X140.232 Y86.999 E3.01888
G1 X140.521 Y87.384 E3.04129
G1 X140.708 Y87.64 E3.05606
G1 X141.322 Y88.509 E3.1056
G1 X141.504 Y88.775 E3.12061
G1 X141.861 Y89.313 E3.15067
G1 X142.071 Y89.642 E3.16885
G1 X142.686 Y90.647 E3.22371
G1 X142.86 Y90.942 E3.23966
G1 X143.125 Y91.405 E3.2645
G1 X143.293 Y91.71 E3.28072
G1 X143.755 Y92.58 E3.32658
G1 X143.894 Y92.85 E3.34072
G1 X144.217 Y93.501 E3.37456
G1 X144.382 Y93.849 E3.3925
G1 X144.848 Y94.88 E3.44518
G1 X144.987 Y95.206 E3.46168
G1 X145.198 Y95.717 E3.48743
G1 X145.316 Y96.013 E3.50226
G1 X145.711 Y97.054 E3.55411
G1 X145.829 Y97.382 E3.57034
G1 X146.03 Y97.967 E3.59914
G1 X146.134 Y98.285 E3.61472
G1 X146.425 Y99.224 E3.6605
G1 X146.518 Y99.542 E3.67593
G1 X146.689 Y100.159 E3.70574
G1 X146.781 Y100.512 E3.72273
G1 X147.045 Y101.604 E3.77504
G1 X147.114 Y101.907 E3.78951
G1 X147.241 Y102.506 E3.81802
G1 X147.316 Y102.898 E3.8366
G1 X147.497 Y103.936 E3.88567
G1 X147.545 Y104.234 E3.89972
G1 X147.642 Y104.897 E3.93092
G1 X147.691 Y105.277 E3.94876
G1 X147.821 Y106.464 E4.00437
G1 X147.848 Y106.764 E4.01839
G1 X147.894 Y107.349 E4.04572
G1 X147.915 Y107.684 E4.06135
G1 X147.967 Y108.784 E4.11262
G1 X147.979 Y109.189 E4.13149
G1 X147.987 Y109.704 E4.15547
G1 X147.987 Y110.034 E4.17084
G1 X147.973 Y111.005 E4.21606
G1 X147.962 Y111.398 E4.23437
G1 X147.933 Y112.026 E4.26364
G1 X147.913 Y112.364 E4.27941
G1 X147.833 Y113.404 E4.32798
G1 X147.805 Y113.715 E4.34252
G1 X147.727 Y114.438 E4.37638
G1 X147.686 Y114.763 E4.39163
G1 X147.524 Y115.907 E4.44543
G1 X147.471 Y116.235 E4.4609
G1 X147.374 Y116.793 E4.48727
G1 X147.311 Y117.129 E4.50319
G1 X147.086 Y118.221 E4.55511
G1 X147.009 Y118.564 E4.57148
G1 X146.877 Y119.115 E4.59786
G1 X146.796 Y119.435 E4.61323
G1 X146.519 Y120.455 E4.66245
G1 X146.421 Y120.792 E4.67879
G1 X146.222 Y121.442 E4.71044
G1 X146.118 Y121.766 E4.72629
G1 X145.809 Y122.674 E4.77095
G1 X145.695 Y122.995 E4.78681
G1 X145.447 Y123.659 E4.81982
G1 X145.313 Y124 E4.83688
G1 X144.944 Y124.894 E4.88191
G1 X144.794 Y125.244 E4.89964
G1 X144.51 Y125.875 E4.93186
G1 X144.371 Y126.172 E4.94713
G1 X143.936 Y127.065 E4.99338
G1 X143.791 Y127.353 E5.0084
G1 X143.452 Y128 E5.04241
G1 X143.271 Y128.331 E5.05998
G1 X142.81 Y129.142 E5.10342
G1 X142.599 Y129.501 E5.12281
G1 X142.272 Y130.038 E5.15208
G1 X142.09 Y130.326 E5.16795
G1 X141.503 Y131.224 E5.2179
G1 X141.309 Y131.511 E5.23403
G1 X140.941 Y132.037 E5.26392
G1 X140.734 Y132.323 E5.28036
G1 X140.097 Y133.174 E5.32986
G1 X139.816 Y133.538 E5.35127
G1 X139.493 Y133.943 E5.3754
G1 X139.269 Y134.214 E5.39177
G1 X138.628 Y134.967 E5.43781
G1 X138.295 Y135.346 E5.46131
G1 X137.932 Y135.746 E5.48646
G1 X137.691 Y136.003 E5.50286
G1 X136.886 Y136.834 E5.55674
G1 X136.629 Y137.091 E5.57366
G1 X136.23 Y137.478 E5.59954
G1 X135.989 Y137.705 E5.61496
G1 X135.275 Y138.357 E5.65998
G1 X135.027 Y138.576 E5.67539
G1 X134.472 Y139.053 E5.70946
G1 X134.19 Y139.288 E5.72656
G1 X133.418 Y139.908 E5.77266
G1 X133.157 Y140.112 E5.78809
G1 X132.594 Y140.536 E5.82091
G1 X132.335 Y140.726 E5.83586
G1 X131.502 Y141.314 E5.88334
G1 X131.067 Y141.61 E5.90784
G1 X130.678 Y141.867 E5.92955
G1 X130.368 Y142.064 E5.94665
G1 X129.449 Y142.628 E5.99686
G1 X129.165 Y142.797 E6.01225
G1 X128.577 Y143.134 E6.04381
G1 X128.263 Y143.307 E6.0605
G1 X127.275 Y143.83 E6.11256
G1 X127.004 Y143.967 E6.1267
G1 X126.485 Y144.223 E6.15364
G1 X126.152 Y144.381 E6.17081
G1 X125.23 Y144.798 E6.21792
G1 X124.955 Y144.917 E6.23188
G1 X124.331 Y145.179 E6.26339
G1 X123.957 Y145.328 E6.28214
G1 X122.921 Y145.719 E6.3337
G1 X122.606 Y145.833 E6.3493
G1 X122.023 Y146.033 E6.378
G1 X121.709 Y146.135 E6.39337
G1 X120.588 Y146.481 E6.448
G1 X120.313 Y146.559 E6.46131
G1 X119.763 Y146.71 E6.48787
G1 X119.42 Y146.799 E6.50437
G1 X118.329 Y147.061 E6.55661
G1 X118.005 Y147.133 E6.57207
G1 X117.463 Y147.246 E6.59785
G1 X117.121 Y147.312 E6.61407
G1 X115.906 Y147.524 E6.6715
G1 X115.616 Y147.569 E6.68516
G1 X115.055 Y147.649 E6.71155
G1 X114.719 Y147.691 E6.72732
G1 X113.625 Y147.812 E6.77857
G1 X113.26 Y147.846 E6.79564
G1 X112.72 Y147.889 E6.82086
G1 X112.386 Y147.911 E6.83645
G1 X111.172 Y147.969 E6.89304
G1 X110.879 Y147.977 E6.90669
G1 X110.325 Y147.986 E6.93249
G1 X109.996 Y147.986 E6.94781
G1 X108.971 Y147.972 E6.99554
G1 X108.635 Y147.962 E7.0112
G1 X107.957 Y147.932 E7.0428
G1 X107.6 Y147.911 E7.05945
G1 X106.611 Y147.835 E7.10564
G1 X106.197 Y147.797 E7.125
G1 X105.545 Y147.726 E7.15553
G1 X105.215 Y147.684 E7.17102
G1 X104.097 Y147.525 E7.22361
G1 X103.742 Y147.468 E7.24035
G1 X103.219 Y147.377 E7.26507
G1 X102.897 Y147.316 E7.28033
G1 X101.872 Y147.106 E7.32905
G1 X101.548 Y147.035 E7.34449
G1 X100.897 Y146.881 E7.37564
G1 X100.518 Y146.784 E7.39386
G1 X99.454 Y146.492 E7.44524
G1 X99.148 Y146.403 E7.46007
G1 X98.579 Y146.229 E7.48778
G1 X98.239 Y146.119 E7.50442
G1 X97.212 Y145.768 E7.55496
G1 X96.893 Y145.654 E7.57073
G1 X96.298 Y145.43 E7.60034
G1 X95.974 Y145.302 E7.61656
G1 X94.908 Y144.86 E7.67029
G1 X94.613 Y144.731 E7.68528
G1 X94.134 Y144.515 E7.70975
G1 X93.834 Y144.374 E7.72519
G1 X92.901 Y143.919 E7.77352
G1 X92.442 Y143.686 E7.79749
G1 X92 Y143.452 E7.82078
G1 X91.713 Y143.294 E7.83603
G1 X90.789 Y142.769 E7.88552
G1 X90.496 Y142.597 E7.90134
G1 X89.945 Y142.261 E7.93139
G1 X89.649 Y142.073 E7.94772
G1 X88.62 Y141.398 E8.00502
G1 X88.37 Y141.227 E8.01913
G1 X87.946 Y140.929 E8.04326
G1 X87.689 Y140.743 E8.05803
G1 X86.848 Y140.115 E8.1069
G1 X86.581 Y139.909 E8.12261
G1 X86.077 Y139.508 E8.1526
G1 X85.798 Y139.278 E8.16943
G1 X85 Y138.599 E8.21822
G1 X84.749 Y138.379 E8.23376
G1 X84.257 Y137.934 E8.26466
G1 X83.997 Y137.691 E8.28123
G1 X83.28 Y136.999 E8.32763
G1 X82.913 Y136.633 E8.35176
G1 X82.559 Y136.269 E8.3754
G1 X82.318 Y136.013 E8.39178
G1 X81.612 Y135.239 E8.44056
G1 X81.396 Y134.995 E8.45573
G1 X80.944 Y134.469 E8.48802
G1 X80.696 Y134.169 E8.50615
G1 X79.974 Y133.266 E8.55998
G1 X79.768 Y133.001 E8.57561
G1 X79.479 Y132.616 E8.59803
G1 X79.292 Y132.36 E8.61279
G1 X78.678 Y131.491 E8.66234
G1 X78.494 Y131.221 E8.67755
G1 X78.136 Y130.681 E8.70772
G1 X77.93 Y130.358 E8.72556
G1 X77.314 Y129.353 E8.78045
G1 X77.144 Y129.065 E8.79602
G1 X76.878 Y128.601 E8.82092
G1 X76.704 Y128.285 E8.83772
G1 X76.243 Y127.416 E8.88353
G1 X76.103 Y127.144 E8.89777
G1 X75.78 Y126.492 E8.93165
G1 X75.62 Y126.154 E8.94907
G1 X75.152 Y125.12 E9.00192
G1 X75.013 Y124.794 E9.01842
G1 X74.802 Y124.283 E9.04416
G1 X74.684 Y123.987 E9.059
G1 X74.289 Y122.946 E9.11084
G1 X74.169 Y122.613 E9.12733
G1 X73.968 Y122.027 E9.15617
G1 X73.867 Y121.717 E9.17135
G1 X73.576 Y120.779 E9.21709
G1 X73.481 Y120.457 E9.23272
G1 X73.297 Y119.793 E9.2648
G1 X73.207 Y119.447 E9.28145
G1 X72.97 Y118.469 E9.32831
G1 X72.9 Y118.159 E9.34311
G1 X72.755 Y117.475 E9.37566
G1 X72.682 Y117.099 E9.3935
G1 X72.513 Y116.138 E9.43893
G1 X72.449 Y115.742 E9.45761
G1 X72.36 Y115.126 E9.48659
G1 X72.315 Y114.772 E9.50321
G1 X72.183 Y113.584 E9.55887
G1 X72.154 Y113.26 E9.57402
G1 X72.109 Y112.694 E9.60045
G1 X72.087 Y112.346 E9.61669
G1 X72.033 Y111.203 E9.66997
G1 X72.024 Y110.89 E9.68455
G1 X72.014 Y110.348 E9.7098
G1 X72.013 Y109.982 E9.72684
G1 X72.028 Y108.969 E9.77401
G1 X72.038 Y108.65 E9.78887
G1 X72.068 Y107.966 E9.82075
G1 X72.089 Y107.609 E9.83741
G1 X72.173 Y106.524 E9.88808
G1 X72.21 Y106.137 E9.90618
G1 X72.26 Y105.671 E9.92801
G1 X72.302 Y105.326 E9.94419
G1 X72.449 Y104.272 E9.99374
G1 X72.496 Y103.969 E10.00802
G1 X72.606 Y103.314 E10.03895
G1 X72.681 Y102.915 E10.05785
G1 X72.916 Y101.775 E10.11205
G1 X72.989 Y101.445 E10.12779
G1 X73.118 Y100.904 E10.15369
G1 X73.207 Y100.555 E10.17046
G1 X73.503 Y99.472 E10.22274
G1 X73.598 Y99.146 E10.23855
G1 X73.783 Y98.543 E10.26792
G1 X73.886 Y98.225 E10.28348
G1 X74.256 Y97.141 E10.33682
G1 X74.352 Y96.878 E10.34985
G1 X74.553 Y96.341 E10.37655
G1 X74.687 Y96 E10.39361
G1 X75.056 Y95.106 E10.43865
G1 X75.206 Y94.756 E10.45638
G1 X75.49 Y94.125 E10.4886
G1 X75.629 Y93.828 E10.50387
G1 X76.064 Y92.935 E10.55012
G1 X76.209 Y92.647 E10.56514
G1 X76.548 Y92 E10.59915
G1 X76.729 Y91.669 E10.61671
G1 X77.19 Y90.858 E10.66015
G1 X77.401 Y90.499 E10.67954
G1 X77.728 Y89.962 E10.70882
G1 X77.91 Y89.674 E10.72468
G1 X78.497 Y88.776 E10.77464
G1 X78.691 Y88.489 E10.79077
G1 X79.059 Y87.963 E10.82066
G1 X79.266 Y87.677 E10.8371
G1 X79.903 Y86.826 E10.8866
G1 X80.184 Y86.462 E10.90801
G1 X80.507 Y86.057 E10.93213
G1 X80.731 Y85.786 E10.9485
G1 X81.372 Y85.033 E10.99455
G1 X81.705 Y84.654 E11.01804
G1 X82.068 Y84.254 E11.04319
G1 X82.309 Y83.997 E11.0596
G1 X83.114 Y83.166 E11.11347
G0 F6000 X83.398 Y83.447
G1 F1200 X83.65 Y83.196 E11.13004
G1 X84.049 Y82.809 E11.15592
G1 X84.281 Y82.591 E11.17074
G1 X84.995 Y81.939 E11.21576
G1 X85.234 Y81.727 E11.23064
G1 X85.789 Y81.25 E11.26472
G1 X86.061 Y81.024 E11.28118
G1 X86.962 Y80.302 E11.33495
G1 X87.233 Y80.093 E11.35088
G1 X87.646 Y79.783 E11.37493
G1 X87.896 Y79.601 E11.38933
G1 X88.729 Y79.013 E11.43681
G1 X89.052 Y78.792 E11.45503
G1 X89.558 Y78.457 E11.48329
G1 X89.854 Y78.269 E11.49961
G1 X90.762 Y77.712 E11.54922
G1 X91.034 Y77.55 E11.56396
G1 X91.622 Y77.213 E11.59552
G1 X91.925 Y77.046 E11.61163
G1 X92.908 Y76.526 E11.66341
G1 X93.173 Y76.392 E11.67724
G1 X93.692 Y76.136 E11.70418
G1 X94.013 Y75.984 E11.72072
G1 X94.935 Y75.567 E11.76784
G1 X95.199 Y75.452 E11.78125
G1 X95.823 Y75.19 E11.81276
G1 X96.184 Y75.046 E11.83086
G1 X97.22 Y74.655 E11.88242
G1 X97.523 Y74.546 E11.89741
G1 X98.106 Y74.346 E11.92611
G1 X98.409 Y74.247 E11.94096
G1 X99.524 Y73.903 E11.99529
G1 X99.793 Y73.826 E12.00832
G1 X100.343 Y73.675 E12.03488
G1 X100.674 Y73.59 E12.05079
G1 X101.765 Y73.328 E12.10304
G1 X102.077 Y73.258 E12.11793
G1 X102.619 Y73.145 E12.14371
G1 X102.948 Y73.082 E12.1593
G1 X104.157 Y72.871 E12.21645
G1 X104.441 Y72.827 E12.22983
G1 X105.002 Y72.747 E12.25622
G1 X105.325 Y72.706 E12.27138
G1 X106.414 Y72.586 E12.3224
G1 X106.772 Y72.552 E12.33914
G1 X107.312 Y72.509 E12.36437
G1 X107.634 Y72.489 E12.37939
G1 X108.841 Y72.431 E12.43566
G1 X109.128 Y72.423 E12.44903
G1 X109.682 Y72.414 E12.47483
G1 X109.999 Y72.414 E12.48959
G1 X111.024 Y72.428 E12.53732
G1 X111.348 Y72.437 E12.55241
G1 X112.026 Y72.467 E12.58401
G1 X112.369 Y72.488 E12.60001
G1 X113.358 Y72.564 E12.6462
G1 X113.765 Y72.601 E12.66523
G1 X114.411 Y72.672 E12.69549
G1 X114.729 Y72.712 E12.71042
G1 X115.841 Y72.87 E12.76272
G1 X116.189 Y72.926 E12.77913
G1 X116.712 Y73.017 E12.80385
G1 X117.023 Y73.076 E12.81859
G1 X118.048 Y73.286 E12.86731
G1 X118.36 Y73.355 E12.88219
G1 X119.011 Y73.509 E12.91334
G1 X119.376 Y73.602 E12.93088
G1 X120.44 Y73.894 E12.98225
G1 X120.735 Y73.979 E12.99655
G1 X121.304 Y74.153 E13.02425
G1 X121.632 Y74.26 E13.04032
G1 X122.659 Y74.611 E13.09086
G1 X122.958 Y74.718 E13.10564
G1 X123.549 Y74.94 E13.13504
G1 X123.873 Y75.067 E13.15124
G1 X124.933 Y75.507 E13.20469
G1 X125.222 Y75.634 E13.21939
G1 X125.701 Y75.85 E13.24385
G1 X125.99 Y75.986 E13.25873
G1 X127.074 Y76.515 E13.31489
G1 X127.371 Y76.668 E13.33045
G1 X127.813 Y76.902 E13.35373
G1 X128.089 Y77.054 E13.36841
G1 X129.013 Y77.579 E13.41789
G1 X129.296 Y77.745 E13.43317
G1 X129.847 Y78.081 E13.46322
G1 X130.132 Y78.261 E13.47892
G1 X131.003 Y78.831 E13.52739
G1 X131.396 Y79.098 E13.54951
G1 X131.819 Y79.395 E13.57358
G1 X132.072 Y79.578 E13.58812
G1 X132.914 Y80.207 E13.63706
G1 X133.168 Y80.403 E13.65199
G1 X133.671 Y80.803 E13.68192
G1 X133.943 Y81.027 E13.69833
G1 X134.742 Y81.707 E13.74718
G1 X134.982 Y81.917 E13.76203
G1 X135.473 Y82.361 E13.79286
G1 X135.724 Y82.596 E13.80887
G1 X136.442 Y83.289 E13.85533
G1 X136.8 Y83.646 E13.87887
G1 X137.153 Y84.009 E13.90245
G1 X137.385 Y84.255 E13.9182
G1 X138.092 Y85.03 E13.96704
G1 X138.307 Y85.273 E13.98215
G1 X138.747 Y85.786 E14.01362
G1 X138.959 Y86.041 E14.02906
G1 X139.703 Y86.968 E14.08441
G1 X139.912 Y87.239 E14.10035
G1 X140.201 Y87.624 E14.12276
G1 X140.381 Y87.871 E14.137
G1 X140.995 Y88.74 E14.18654
G1 X141.17 Y88.996 E14.20098
G1 X141.527 Y89.534 E14.23105
G1 X141.73 Y89.851 E14.24857
G1 X142.343 Y90.852 E14.30323
G1 X142.513 Y91.141 E14.31884
G1 X142.778 Y91.604 E14.34368
