;FLAVOR:Marlin
;TIME:5253
;Filament used: 4.22914m
;Layer height: 0.28
;MINX:72.013
;MINY:72.014
;MINZ:0.28
;MAXX:147.987
;MAXY:147.986
;MAXZ:29.96
;Generated with Cura_SteamEngine 4.8.0
M140 S60
M105
M190 S60
M104 S200
M105
M109 S200
M82 ;absolute extrusion mode
; Ender 3 Custom Start G-code
G92 E0 ; Reset Extruder
G28 ; Home all axes
G1 Z2.0 F3000 ; Move Z Axis up little to prevent scratching of Heat Bed
G1 X0.1 Y20 Z0.3 F5000.0 ; Move to start position
G1 X0.1 Y200.0 Z0.3 F1500.0 E15 ; Draw the first line
G1 X0.4 Y200.0 Z0.3 F5000.0 ; Move to side a little
G1 X0.4 Y20 Z0.3 F1500.0 E30 ; Draw the second line
G92 E0 ; Reset Extruder
G1 Z2.0 F3000 ; Move Z Axis up little to prevent scratching of Heat Bed
G1 X5 Y20 Z0.3 F5000.0 ; Move over to prevent blob squish
G92 E0
G92 E0
G1 F1500 E-6.5
;LAYER_COUNT:107
;LAYER:0
M107
G0 F6000 X83.114 Y83.166 Z0.28
;TYPE:SKIRT
G1 F1500 E0
G1 F1200 X83.371 Y82.909 E0.01692
G1 X83.77 Y82.522 E0.04281
G1 X84.011 Y82.295 E0.05822
G1 X84.725 Y81.643 E0.10325
G1 X84.973 Y81.424 E0.11865
G1 X85.528 Y80.947 E0.15273
G1 X85.81 Y80.712 E0.16982
G1 X86.582 Y80.092 E0.21593
G1 X86.843 Y79.888 E0.23135
G1 X87.406 Y79.464 E0.26417
G1 X87.665 Y79.274 E0.27913
G1 X88.498 Y78.686 E0.32661
G1 X88.938 Y78.387 E0.35138
G1 X89.338 Y78.123 E0.37369
G1 X89.645 Y77.928 E0.39063
G1 X90.553 Y77.371 E0.44023
G1 X90.835 Y77.203 E0.45551
G1 X91.423 Y76.866 E0.48707
G1 X91.737 Y76.693 E0.50377
G1 X92.725 Y76.17 E0.55582
G1 X92.996 Y76.033 E0.56996
G1 X93.515 Y75.777 E0.59691
G1 X93.848 Y75.619 E0.61407
G1 X94.77 Y75.202 E0.66119
G1 X95.045 Y75.083 E0.67514
G1 X95.669 Y74.821 E0.70665
G1 X96.043 Y74.672 E0.7254
G1 X97.079 Y74.281 E0.77696
G1 X97.394 Y74.167 E0.79256
G1 X97.977 Y73.967 E0.82126
G1 X98.291 Y73.865 E0.83663
G1 X99.412 Y73.519 E0.89126
G1 X99.687 Y73.441 E0.90457
G1 X100.237 Y73.29 E0.93113
G1 X100.58 Y73.201 E0.94763
G1 X101.671 Y72.939 E0.99988
G1 X101.995 Y72.867 E1.01533
G1 X102.537 Y72.754 E1.04111
G1 X102.879 Y72.688 E1.05733
G1 X104.094 Y72.476 E1.11476
G1 X104.384 Y72.431 E1.12843
G1 X104.945 Y72.351 E1.15481
G1 X105.281 Y72.309 E1.17058
G1 X106.375 Y72.188 E1.22183
G1 X106.74 Y72.154 E1.2389
G1 X107.28 Y72.111 E1.26413
G1 X107.614 Y72.089 E1.27971
G1 X108.828 Y72.031 E1.3363
G1 X109.121 Y72.023 E1.34995
G1 X109.675 Y72.014 E1.37575
G1 X110.004 Y72.014 E1.39107
G1 X111.029 Y72.028 E1.43881
G1 X111.365 Y72.038 E1.45446
G1 X112.043 Y72.068 E1.48606
G1 X112.4 Y72.089 E1.50271
G1 X113.389 Y72.165 E1.5489
G1 X113.803 Y72.203 E1.56826
G1 X114.455 Y72.274 E1.5988
G1 X114.785 Y72.316 E1.61429
G1 X115.903 Y72.475 E1.66687
G1 X116.258 Y72.532 E1.68361
G1 X116.781 Y72.623 E1.70833
G1 X117.103 Y72.684 E1.72359
G1 X118.128 Y72.894 E1.77231
G1 X118.452 Y72.965 E1.78776
G1 X119.103 Y73.119 E1.81891
G1 X119.482 Y73.216 E1.83712
G1 X120.546 Y73.508 E1.8885
G1 X120.852 Y73.597 E1.90334
G1 X121.421 Y73.771 E1.93104
G1 X121.761 Y73.881 E1.94768
G1 X122.788 Y74.232 E1.99822
G1 X123.099 Y74.344 E2.01361
G1 X123.69 Y74.566 E2.04301
G1 X124.026 Y74.698 E2.05982
G1 X125.092 Y75.14 E2.11355
G1 X125.387 Y75.269 E2.12855
G1 X125.866 Y75.485 E2.15301
G1 X126.166 Y75.626 E2.16845
G1 X127.099 Y76.081 E2.21678
G1 X127.558 Y76.314 E2.24075
G1 X128 Y76.548 E2.26404
G1 X128.287 Y76.706 E2.2793
G1 X129.211 Y77.231 E2.32878
G1 X129.504 Y77.403 E2.3446
G1 X130.055 Y77.739 E2.37465
G1 X130.351 Y77.927 E2.39098
G1 X131.38 Y78.602 E2.44828
G1 X131.626 Y78.77 E2.46216
G1 X132.049 Y79.067 E2.48622
G1 X132.311 Y79.257 E2.50129
G1 X133.153 Y79.886 E2.55023
G1 X133.417 Y80.089 E2.56574
G1 X133.92 Y80.489 E2.59566
G1 X134.202 Y80.722 E2.6127
G1 X135.001 Y81.402 E2.66155
G1 X135.25 Y81.62 E2.67696
G1 X135.741 Y82.064 E2.70779
G1 X136.002 Y82.308 E2.72442
G1 X136.72 Y83.001 E2.77089
G1 X137.087 Y83.367 E2.79502
G1 X137.44 Y83.73 E2.8186
G1 X137.681 Y83.986 E2.83497
G1 X138.388 Y84.761 E2.88382
G1 X138.611 Y85.013 E2.89949
G1 X139.051 Y85.526 E2.93096
G1 X139.271 Y85.79 E2.94696
G1 X139.91 Y86.584 E2.99442
G1 X140.232 Y86.999 E3.01888
G1 X140.521 Y87.384 E3.04129
G1 X140.708 Y87.64 E3.05606
G1 X141.322 Y88.509 E3.1056
G1 X141.504 Y88.775 E3.12061
G1 X141.861 Y89.313 E3.15067
G1 X142.071 Y89.642 E3.16885
G1 X142.686 Y90.647 E3.22371
G1 X142.86 Y90.942 E3.23966
G1 X143.125 Y91.405 E3.2645
G1 X143.293 Y91.71 E3.28072
G1 X143.755 Y92.58 E3.32658
G1 X143.894 Y92.85 E3.34072
G1 X144.217 Y93.501 E3.37456
G1 X144.382 Y93.849 E3.3925
G1 X144.848 Y94.88 E3.44518
G1 X144.987 Y95.206 E3.46168
G1 X145.198 Y95.717 E3.48743
G1 X145.316 Y96.013 E3.50226
G1 X145.711 Y97.054 E3.55411
G1 X145.829 Y97.382 E3.57034
G1 X146.03 Y97.967 E3.59914
G1 X146.134 Y98.285 E3.61472
G1 X146.425 Y99.224 E3.6605
G1 X146.517 Y99.538 E3.67573
G1 X146.701 Y100.201 E3.70777
G1 X146.793 Y100.555 E3.7248
G1 X147.03 Y101.534 E3.77171
G1 X147.097 Y101.829 E3.78579
G1 X147.237 Y102.486 E3.81707
G1 X147.316 Y102.89 E3.83624
G1 X147.494 Y103.911 E3.8845
G1 X147.572 Y104.407 E3.90788
G1 X147.647 Y104.929 E3.93244
G1 X147.692 Y105.282 E3.94901
G1 X147.819 Y106.439 E4.00321
G1 X147.847 Y106.748 E4.01765
G1 X147.889 Y107.275 E4.04227
G1 X147.912 Y107.639 E4.05925
G1 X147.965 Y108.782 E4.11253
G1 X147.975 Y109.089 E4.12684
G1 X147.986 Y109.686 E4.15464
G1 X147.987 Y110.05 E4.17159
G1 X147.973 Y111.008 E4.2162
G1 X147.964 Y111.316 E4.23055
G1 X147.935 Y111.995 E4.2622
G1 X147.912 Y112.378 E4.28006
G1 X147.83 Y113.433 E4.32934
G1 X147.801 Y113.746 E4.34397
G1 X147.731 Y114.403 E4.37474
G1 X147.685 Y114.774 E4.39215
G1 X147.525 Y115.903 E4.44524
G1 X147.472 Y116.236 E4.46094
G1 X147.377 Y116.781 E4.4867
G1 X147.315 Y117.107 E4.50216
G1 X147.087 Y118.216 E4.55487
G1 X147.009 Y118.564 E4.57148
G1 X146.877 Y119.115 E4.59786
G1 X146.796 Y119.435 E4.61323
G1 X146.519 Y120.455 E4.66245
G1 X146.42 Y120.796 E4.67898
G1 X146.218 Y121.455 E4.71108
G1 X146.114 Y121.775 E4.72675
G1 X145.744 Y122.859 E4.78008
G1 X145.648 Y123.122 E4.79312
G1 X145.447 Y123.659 E4.81982
G1 X145.313 Y124 E4.83688
G1 X144.944 Y124.894 E4.88191
G1 X144.794 Y125.244 E4.89964
G1 X144.51 Y125.875 E4.93187
G1 X144.371 Y126.172 E4.94713
G1 X143.936 Y127.065 E4.99339
G1 X143.791 Y127.353 E5.0084
G1 X143.452 Y128 E5.04241
G1 X143.271 Y128.331 E5.05998
G1 X142.81 Y129.142 E5.10342
G1 X142.599 Y129.501 E5.12281
G1 X142.272 Y130.038 E5.15208
G1 X142.09 Y130.326 E5.16795
G1 X141.503 Y131.224 E5.2179
G1 X141.309 Y131.511 E5.23403
G1 X140.941 Y132.037 E5.26393
G1 X140.734 Y132.323 E5.28037
G1 X140.097 Y133.174 E5.32986
G1 X139.816 Y133.538 E5.35128
G1 X139.493 Y133.943 E5.3754
G1 X139.269 Y134.214 E5.39177
G1 X138.628 Y134.967 E5.43782
G1 X138.295 Y135.346 E5.46131
G1 X137.932 Y135.746 E5.48646
G1 X137.691 Y136.003 E5.50287
G1 X136.886 Y136.834 E5.55674
G1 X136.629 Y137.091 E5.57366
G1 X136.23 Y137.478 E5.59955
G1 X135.989 Y137.705 E5.61496
G1 X135.275 Y138.357 E5.65998
G1 X135.027 Y138.576 E5.67539
G1 X134.472 Y139.053 E5.70947
G1 X134.19 Y139.288 E5.72656
G1 X133.418 Y139.908 E5.77267
G1 X133.157 Y140.112 E5.78809
G1 X132.594 Y140.536 E5.82091
G1 X132.335 Y140.726 E5.83587
G1 X131.502 Y141.314 E5.88334
G1 X131.067 Y141.61 E5.90784
G1 X130.678 Y141.867 E5.92955
G1 X130.368 Y142.064 E5.94666
G1 X129.449 Y142.628 E5.99687
G1 X129.165 Y142.797 E6.01225
G1 X128.577 Y143.134 E6.04381
G1 X128.263 Y143.307 E6.06051
G1 X127.275 Y143.83 E6.11256
G1 X127.004 Y143.967 E6.1267
G1 X126.485 Y144.223 E6.15365
G1 X126.152 Y144.381 E6.17081
G1 X125.23 Y144.798 E6.21793
G1 X124.955 Y144.917 E6.23188
G1 X124.331 Y145.179 E6.26339
G1 X123.957 Y145.328 E6.28214
G1 X122.921 Y145.719 E6.3337
G1 X122.606 Y145.833 E6.3493
G1 X122.023 Y146.033 E6.378
G1 X121.709 Y146.135 E6.39337
G1 X120.588 Y146.481 E6.448
G1 X120.313 Y146.559 E6.46131
G1 X119.763 Y146.71 E6.48787
G1 X119.42 Y146.799 E6.50437
G1 X118.329 Y147.061 E6.55662
G1 X118.005 Y147.133 E6.57207
G1 X117.463 Y147.246 E6.59785
G1 X117.121 Y147.312 E6.61407
G1 X115.906 Y147.524 E6.6715
G1 X115.616 Y147.569 E6.68517
G1 X115.055 Y147.649 E6.71155
G1 X114.719 Y147.691 E6.72732
G1 X113.625 Y147.812 E6.77857
G1 X113.26 Y147.846 E6.79564
G1 X112.72 Y147.889 E6.82086
G1 X112.386 Y147.911 E6.83645
G1 X111.172 Y147.969 E6.89304
G1 X110.879 Y147.977 E6.90669
G1 X110.325 Y147.986 E6.93249
G1 X109.996 Y147.986 E6.94781
G1 X108.971 Y147.972 E6.99555
G1 X108.635 Y147.962 E7.0112
G1 X107.957 Y147.932 E7.0428
G1 X107.6 Y147.911 E7.05945
G1 X106.611 Y147.835 E7.10564
G1 X106.197 Y147.797 E7.125
G1 X105.545 Y147.726 E7.15554
G1 X105.215 Y147.684 E7.17103
G1 X104.097 Y147.525 E7.22361
G1 X103.742 Y147.468 E7.24035
G1 X103.219 Y147.377 E7.26507
G1 X102.897 Y147.316 E7.28033
G1 X101.872 Y147.106 E7.32905
G1 X101.548 Y147.035 E7.3445
G1 X100.897 Y146.881 E7.37565
G1 X100.518 Y146.784 E7.39386
G1 X99.454 Y146.492 E7.44524
G1 X99.148 Y146.403 E7.46008
G1 X98.579 Y146.229 E7.48778
G1 X98.239 Y146.119 E7.50442
G1 X97.212 Y145.768 E7.55496
G1 X96.893 Y145.654 E7.57073
G1 X96.298 Y145.43 E7.60034
G1 X95.974 Y145.302 E7.61656
G1 X94.908 Y144.86 E7.6703
G1 X94.613 Y144.731 E7.68529
G1 X94.134 Y144.515 E7.70975
G1 X93.834 Y144.374 E7.72519
G1 X92.901 Y143.919 E7.77353
G1 X92.442 Y143.686 E7.79749
G1 X92 Y143.452 E7.82078
G1 X91.713 Y143.294 E7.83604
G1 X90.789 Y142.769 E7.88552
G1 X90.496 Y142.597 E7.90134
G1 X89.945 Y142.261 E7.93139
G1 X89.649 Y142.073 E7.94772
G1 X88.62 Y141.398 E8.00503
G1 X88.37 Y141.227 E8.01913
G1 X87.946 Y140.929 E8.04326
G1 X87.689 Y140.743 E8.05803
G1 X86.848 Y140.115 E8.10691
G1 X86.581 Y139.909 E8.12261
G1 X86.077 Y139.508 E8.1526
G1 X85.798 Y139.278 E8.16944
G1 X85 Y138.599 E8.21823
G1 X84.749 Y138.379 E8.23377
G1 X84.257 Y137.934 E8.26466
G1 X83.997 Y137.691 E8.28123
G1 X83.28 Y136.999 E8.32763
G1 X82.913 Y136.633 E8.35176
G1 X82.559 Y136.269 E8.37541
G1 X82.318 Y136.013 E8.39178
G1 X81.612 Y135.239 E8.44056
G1 X81.396 Y134.995 E8.45573
G1 X80.944 Y134.469 E8.48803
G1 X80.696 Y134.169 E8.50615
G1 X79.974 Y133.266 E8.55999
G1 X79.768 Y133.001 E8.57562
G1 X79.479 Y132.616 E8.59803
G1 X79.292 Y132.36 E8.61279
G1 X78.678 Y131.491 E8.66234
G1 X78.494 Y131.221 E8.67755
G1 X78.136 Y130.681 E8.70772
G1 X77.93 Y130.358 E8.72556
G1 X77.314 Y129.353 E8.78045
G1 X77.144 Y129.065 E8.79602
G1 X76.878 Y128.601 E8.82093
G1 X76.704 Y128.285 E8.83772
G1 X76.243 Y127.416 E8.88353
G1 X76.103 Y127.144 E8.89777
G1 X75.78 Y126.492 E8.93166
G1 X75.62 Y126.154 E8.94907
G1 X75.152 Y125.12 E9.00192
G1 X75.013 Y124.794 E9.01842
G1 X74.802 Y124.283 E9.04416
G1 X74.684 Y123.987 E9.059
G1 X74.289 Y122.946 E9.11085
G1 X74.169 Y122.613 E9.12733
G1 X73.968 Y122.027 E9.15618
G1 X73.867 Y121.717 E9.17136
G1 X73.576 Y120.779 E9.21709
G1 X73.481 Y120.457 E9.23272
G1 X73.297 Y119.793 E9.2648
G1 X73.207 Y119.447 E9.28145
G1 X72.97 Y118.469 E9.32831
G1 X72.9 Y118.159 E9.34311
G1 X72.755 Y117.475 E9.37567
G1 X72.682 Y117.099 E9.3935
G1 X72.513 Y116.138 E9.43894
G1 X72.449 Y115.742 E9.45761
G1 X72.358 Y115.112 E9.48725
G1 X72.313 Y114.763 E9.50364
G1 X72.203 Y113.779 E9.54974
G1 X72.151 Y113.232 E9.57533
G1 X72.108 Y112.682 E9.60102
G1 X72.088 Y112.364 E9.61585
G1 X72.039 Y111.366 E9.66238
G1 X72.027 Y111.023 E9.67836
G1 X72.014 Y110.344 E9.70999
G1 X72.013 Y109.989 E9.72652
G1 X72.031 Y108.836 E9.78021
G1 X72.043 Y108.485 E9.79656
G1 X72.067 Y107.974 E9.82039
G1 X72.088 Y107.636 E9.83615
G1 X72.179 Y106.467 E9.89075
G1 X72.21 Y106.134 E9.90633
G1 X72.272 Y105.563 E9.93307
G1 X72.316 Y105.211 E9.94959
G1 X72.449 Y104.27 E9.99384
G1 X72.509 Y103.884 E10.01203
G1 X72.619 Y103.241 E10.04241
G1 X72.685 Y102.892 E10.05894
G1 X72.915 Y101.777 E10.11196
G1 X72.991 Y101.436 E10.12822
G1 X73.123 Y100.885 E10.15461
G1 X73.204 Y100.565 E10.16998
G1 X73.481 Y99.545 E10.21919
G1 X73.58 Y99.204 E10.23573
G1 X73.782 Y98.545 E10.26782
G1 X73.886 Y98.225 E10.28349
G1 X74.256 Y97.141 E10.33683
G1 X74.352 Y96.878 E10.34986
G1 X74.553 Y96.341 E10.37656
G1 X74.687 Y96 E10.39362
G1 X75.056 Y95.106 E10.43866
G1 X75.206 Y94.756 E10.45639
G1 X75.49 Y94.125 E10.48861
G1 X75.629 Y93.828 E10.50388
G1 X76.064 Y92.935 E10.55013
G1 X76.209 Y92.647 E10.56515
G1 X76.548 Y92 E10.59916
G1 X76.729 Y91.669 E10.61672
G1 X77.19 Y90.858 E10.66016
G1 X77.401 Y90.499 E10.67955
G1 X77.728 Y89.962 E10.70883
G1 X77.91 Y89.674 E10.72469
G1 X78.497 Y88.776 E10.77465
G1 X78.691 Y88.489 E10.79078
G1 X79.059 Y87.963 E10.82067
G1 X79.266 Y87.677 E10.83711
G1 X79.903 Y86.826 E10.88661
G1 X80.184 Y86.462 E10.90802
G1 X80.507 Y86.057 E10.93214
G1 X80.731 Y85.786 E10.94851
G1 X81.372 Y85.033 E10.99456
G1 X81.705 Y84.654 E11.01805
G1 X82.068 Y84.254 E11.0432
G1 X82.309 Y83.997 E11.05961
G1 X83.114 Y83.166 E11.11348
G0 F6000 X83.398 Y83.447
G1 F1200 X83.65 Y83.196 E11.13004
G1 X84.049 Y82.809 E11.15593
G1 X84.281 Y82.591 E11.17075
G1 X84.995 Y81.939 E11.21577
G1 X85.234 Y81.727 E11.23065
G1 X85.789 Y81.25 E11.26473
G1 X86.061 Y81.024 E11.28119
G1 X86.962 Y80.302 E11.33496
G1 X87.233 Y80.093 E11.35089
G1 X87.646 Y79.783 E11.37494
G1 X87.896 Y79.601 E11.38934
G1 X88.729 Y79.013 E11.43681
G1 X89.052 Y78.792 E11.45504
G1 X89.558 Y78.457 E11.4833
G1 X89.854 Y78.269 E11.49962
G1 X90.762 Y77.712 E11.54923
G1 X91.034 Y77.55 E11.56397
G1 X91.622 Y77.213 E11.59552
G1 X91.925 Y77.046 E11.61163
G1 X92.908 Y76.526 E11.66342
G1 X93.173 Y76.392 E11.67724
G1 X93.692 Y76.136 E11.70419
G1 X94.013 Y75.984 E11.72073
G1 X94.935 Y75.567 E11.76785
G1 X95.199 Y75.452 E11.78126
G1 X95.823 Y75.19 E11.81277
G1 X96.184 Y75.046 E11.83087
G1 X97.22 Y74.655 E11.88243
G1 X97.523 Y74.546 E11.89742
G1 X98.106 Y74.346 E11.92612
G1 X98.409 Y74.247 E11.94097
G1 X99.524 Y73.903 E11.9953
G1 X99.793 Y73.826 E12.00833
G1 X100.343 Y73.675 E12.03489
G1 X100.674 Y73.59 E12.0508
G1 X101.765 Y73.328 E12.10305
G1 X102.077 Y73.258 E12.11794
G1 X102.619 Y73.145 E12.14372
G1 X102.948 Y73.082 E12.15931
G1 X104.157 Y72.871 E12.21646
G1 X104.441 Y72.827 E12.22984
G1 X105.002 Y72.747 E12.25623
G1 X105.325 Y72.706 E12.27139
G1 X106.414 Y72.586 E12.32241
G1 X106.772 Y72.552 E12.33915
G1 X107.312 Y72.509 E12.36437
G1 X107.634 Y72.489 E12.3794
G1 X108.841 Y72.431 E12.43567
G1 X109.128 Y72.423 E12.44903
G1 X109.682 Y72.414 E12.47483
G1 X109.999 Y72.414 E12.4896
G1 X111.024 Y72.428 E12.53733
G1 X111.348 Y72.437 E12.55242
G1 X112.026 Y72.467 E12.58402
G1 X112.369 Y72.488 E12.60002
G1 X113.358 Y72.564 E12.64621
G1 X113.765 Y72.601 E12.66524
G1 X114.411 Y72.672 E12.6955
G1 X114.729 Y72.712 E12.71043
G1 X115.841 Y72.87 E12.76273
G1 X116.189 Y72.926 E12.77914
G1 X116.712 Y73.017 E12.80386
G1 X117.023 Y73.076 E12.8186
G1 X118.048 Y73.286 E12.86732
G1 X118.36 Y73.355 E12.8822
G1 X119.011 Y73.509 E12.91335
G1 X119.376 Y73.602 E12.93089
G1 X120.44 Y73.894 E12.98226
G1 X120.735 Y73.979 E12.99656
G1 X121.304 Y74.153 E13.02426
G1 X121.632 Y74.26 E13.04033
G1 X122.659 Y74.611 E13.09087
G1 X122.958 Y74.718 E13.10565
G1 X123.549 Y74.94 E13.13505
G1 X123.873 Y75.067 E13.15125
G1 X124.933 Y75.507 E13.2047
G1 X125.222 Y75.634 E13.21939
G1 X125.701 Y75.85 E13.24386
G1 X125.99 Y75.986 E13.25873
G1 X127.074 Y76.515 E13.3149
G1 X127.371 Y76.668 E13.33046
G1 X127.813 Y76.902 E13.35374
G1 X128.089 Y77.054 E13.36842
G1 X129.013 Y77.579 E13.4179
G1 X129.296 Y77.745 E13.43318
G1 X129.847 Y78.081 E13.46323
G1 X130.132 Y78.261 E13.47893
G1 X131.003 Y78.831 E13.5274
G1 X131.396 Y79.098 E13.54952
G1 X131.819 Y79.395 E13.57359
G1 X132.072 Y79.578 E13.58813
G1 X132.914 Y80.207 E13.63706
G1 X133.168 Y80.403 E13.652
G1 X133.671 Y80.803 E13.68193
G1 X133.943 Y81.027 E13.69834
G1 X134.742 Y81.707 E13.74719
G1 X134.982 Y81.917 E13.76204
G1 X135.473 Y82.361 E13.79286
G1 X135.724 Y82.596 E13.80888
G1 X136.442 Y83.289 E13.85534
G1 X136.8 Y83.646 E13.87888
G1 X137.153 Y84.009 E13.90246
G1 X137.385 Y84.255 E13.91821
G1 X138.092 Y85.03 E13.96705
G1 X138.307 Y85.273 E13.98216
G1 X138.747 Y85.786 E14.01363
G1 X138.959 Y86.041 E14.02907
G1 X139.703 Y86.968 E14.08442
G1 X139.912 Y87.239 E14.10036
G1 X140.201 Y87.624 E14.12277
G1 X140.381 Y87.871 E14.137
G1 X140.995 Y88.74 E14.18655
G1 X141.17 Y88.996 E14.20099
G1 X141.527 Y89.534 E14.23105
G1 X141.73 Y89.851 E14.24858
G1 X142.343 Y90.852 E14.30324
G1 X142.513 Y91.141 E14.31885
G1 X142.778 Y91.604 E14.34369
G1 X142.94 Y91.898 E14.35932
