;FLAVOR:Marlin
;TIME:2134
;Filament used: 2.02619m
;Layer height: 0.28
;MINX:69.503
;MINY:86.99
;MINZ:0.28
;MAXX:165.498
;MAXY:147.992
;MAXZ:4.76
;Generated with Cura_SteamEngine 4.6.2
M140 S60
M105
M190 S60
M104 S200
M105
M109 S200
M82 ;absolute extrusion mode
; Ender 3 Custom Start G-code
G92 E0 ; Reset Extruder
G28 ; Home all axes
G1 Z2.0 F3000 ; Move Z Axis up little to prevent scratching of Heat Bed
G1 X0.1 Y20 Z0.3 F5000.0 ; Move to start position
G1 X0.1 Y200.0 Z0.3 F1500.0 E15 ; Draw the first line
G1 X0.4 Y200.0 Z0.3 F5000.0 ; Move to side a little
G1 X0.4 Y20 Z0.3 F1500.0 E30 ; Draw the second line
G92 E0 ; Reset Extruder
G1 Z2.0 F3000 ; Move Z Axis up little to prevent scratching of Heat Bed
G1 X5 Y20 Z0.3 F5000.0 ; Move over to prevent blob squish
G92 E0
G92 E0
G1 F1500 E-6.5
;LAYER_COUNT:17
;LAYER:0
M107
G0 F6000 X148.841 Y87.807 Z0.28
;TYPE:SKIRT
G1 F1500 E0
G1 F1200 X149.682 Y87.853 E0.03922
G1 X150.498 Y87.932 E0.07739
G1 X151.475 Y88.075 E0.12337
G1 X151.761 Y88.131 E0.13694
G1 X152.324 Y88.258 E0.16382
G1 X152.657 Y88.343 E0.17982
G1 X153.198 Y88.497 E0.20601
G1 X153.95 Y88.745 E0.24288
G1 X154.521 Y88.961 E0.27131
G1 X154.819 Y89.084 E0.28632
G1 X155.246 Y89.272 E0.30805
G1 X155.507 Y89.394 E0.32146
G1 X155.983 Y89.631 E0.34622
G1 X156.259 Y89.778 E0.36078
G1 X156.819 Y90.1 E0.39086
G1 X157.174 Y90.319 E0.41028
G1 X157.668 Y90.644 E0.43782
G1 X157.918 Y90.819 E0.45203
G1 X158.449 Y91.217 E0.48293
G1 X158.797 Y91.496 E0.5037
G1 X159.237 Y91.869 E0.53056
G1 X159.475 Y92.083 E0.54546
G1 X159.929 Y92.517 E0.57471
G1 X160.161 Y92.753 E0.59012
G1 X160.587 Y93.214 E0.61934
G1 X160.852 Y93.519 E0.63816
G1 X161.267 Y94.029 E0.66877
G1 X161.513 Y94.352 E0.68768
G1 X161.911 Y94.913 E0.71971
G1 X162.113 Y95.219 E0.73678
G1 X162.423 Y95.72 E0.76421
G1 X162.615 Y96.051 E0.78203
G1 X162.921 Y96.619 E0.81207
G1 X163.08 Y96.938 E0.82867
G1 X163.353 Y97.534 E0.8592
G1 X163.496 Y97.874 E0.87637
G1 X163.813 Y98.734 E0.91905
G1 X164.039 Y99.444 E0.95375
G1 X164.277 Y100.325 E0.99624
G1 X164.359 Y100.694 E1.01384
G1 X164.482 Y101.345 E1.04469
G1 X164.533 Y101.674 E1.06019
G1 X164.606 Y102.257 E1.08755
G1 X164.641 Y102.62 E1.10453
G1 X164.686 Y103.313 E1.13687
G1 X164.698 Y103.949 E1.16649
G1 X164.692 Y104.422 E1.18852
G1 X164.658 Y105.142 E1.22208
G1 X164.619 Y105.609 E1.2439
G1 X164.526 Y106.37 E1.2796
G1 X164.471 Y106.714 E1.29582
G1 X164.364 Y107.279 E1.3226
G1 X164.285 Y107.641 E1.33985
G1 X164.126 Y108.272 E1.37015
G1 X164.029 Y108.611 E1.38657
G1 X163.904 Y109.017 E1.40635
G1 X163.831 Y109.237 E1.41714
G1 X163.682 Y109.656 E1.43785
G1 X163.602 Y109.866 E1.44832
G1 X163.435 Y110.277 E1.46897
G1 X163.315 Y110.555 E1.48307
G1 X163.073 Y111.075 E1.50978
G1 X162.914 Y111.393 E1.52634
G1 X162.67 Y111.851 E1.5505
G1 X162.523 Y112.111 E1.56441
G1 X162.274 Y112.528 E1.58702
G1 X162.131 Y112.755 E1.59952
G1 X161.876 Y113.141 E1.62106
G1 X161.73 Y113.351 E1.63297
G1 X161.434 Y113.755 E1.65629
G1 X161.249 Y113.995 E1.6704
G1 X160.918 Y114.401 E1.69479
G1 X160.68 Y114.679 E1.71183
G1 X160.316 Y115.082 E1.73712
G1 X160.134 Y115.273 E1.7494
G1 X159.784 Y115.623 E1.77245
G1 X159.353 Y116.028 E1.79999
G1 X158.615 Y116.689 E1.84612
G1 X128.696 Y142.745 E3.69353
G1 X127.715 Y143.569 E3.75319
G1 X127.063 Y144.074 E3.79159
G1 X126.714 Y144.322 E3.81152
G1 X126.287 Y144.609 E3.83548
G1 X126.039 Y144.767 E3.84917
G1 X125.408 Y145.138 E3.88326
G1 X125.025 Y145.345 E3.90353
G1 X124.356 Y145.676 E3.93828
G1 X123.931 Y145.867 E3.95998
G1 X123.371 Y146.099 E3.98821
G1 X123.105 Y146.2 E4.00146
G1 X122.587 Y146.38 E4.02699
G1 X122.155 Y146.515 E4.04807
G1 X121.895 Y146.591 E4.06068
G1 X121.467 Y146.706 E4.08131
G1 X121.235 Y146.763 E4.09244
G1 X120.619 Y146.898 E4.1218
G1 X120.116 Y146.989 E4.14561
G1 X119.91 Y147.021 E4.15531
G1 X119.481 Y147.078 E4.17546
G1 X119.178 Y147.112 E4.18966
G1 X118.67 Y147.157 E4.21341
G1 X118.314 Y147.179 E4.23002
G1 X117.357 Y147.193 E4.27458
G1 X116.61 Y147.169 E4.30939
G1 X115.703 Y147.099 E4.35174
G1 X115.334 Y147.054 E4.36905
G1 X114.673 Y146.951 E4.4002
G1 X114.303 Y146.881 E4.41774
G1 X113.656 Y146.737 E4.4486
G1 X113.322 Y146.651 E4.46466
G1 X112.825 Y146.509 E4.48873
G1 X112.281 Y146.335 E4.51533
G1 X112.035 Y146.25 E4.52745
G1 X111.49 Y146.044 E4.55458
G1 X111.193 Y145.922 E4.56953
G1 X110.695 Y145.701 E4.5949
G1 X110.438 Y145.579 E4.60814
G1 X110.056 Y145.388 E4.62803
G1 X109.779 Y145.242 E4.64261
G1 X109.161 Y144.888 E4.67577
G1 X108.79 Y144.658 E4.6961
G1 X108.302 Y144.336 E4.72332
G1 X108.087 Y144.185 E4.73556
G1 X107.453 Y143.702 E4.77267
G1 X106.985 Y143.315 E4.80095
G1 X106.089 Y142.558 E4.85557
G1 X76.425 Y116.716 E6.68748
G1 X75.489 Y115.866 E6.74635
G1 X75.191 Y115.585 E6.76542
G1 X74.874 Y115.273 E6.78613
G1 X74.259 Y114.611 E6.82821
G1 X74.06 Y114.377 E6.84251
G1 X73.688 Y113.913 E6.8702
G1 X73.442 Y113.587 E6.88922
G1 X73.042 Y113.018 E6.92161
G1 X72.856 Y112.733 E6.93745
G1 X72.573 Y112.273 E6.9626
G1 X72.38 Y111.94 E6.98052
G1 X72.071 Y111.365 E7.01092
G1 X71.904 Y111.029 E7.02839
G1 X71.625 Y110.418 E7.05967
G1 X71.481 Y110.073 E7.07708
G1 X71.163 Y109.203 E7.12021
G1 X70.948 Y108.519 E7.15359
G1 X70.712 Y107.627 E7.19656
G1 X70.632 Y107.259 E7.2141
G1 X70.523 Y106.677 E7.24167
G1 X70.467 Y106.321 E7.25845
G1 X70.384 Y105.654 E7.28975
G1 X70.351 Y105.289 E7.30681
G1 X70.31 Y104.57 E7.34034
G1 X70.303 Y104.06 E7.36409
G1 X70.308 Y103.589 E7.38603
G1 X70.344 Y102.828 E7.4215
G1 X70.383 Y102.372 E7.44281
G1 X70.474 Y101.629 E7.47767
G1 X70.53 Y101.279 E7.49417
G1 X70.645 Y100.678 E7.52267
G1 X70.727 Y100.309 E7.54027
G1 X70.88 Y99.709 E7.5691
G1 X70.979 Y99.364 E7.58581
G1 X71.114 Y98.928 E7.60707
G1 X71.197 Y98.681 E7.6192
G1 X71.447 Y98.011 E7.6525
G1 X71.595 Y97.654 E7.67049
G1 X71.72 Y97.368 E7.68503
G1 X71.956 Y96.866 E7.71086
G1 X72.099 Y96.582 E7.72566
G1 X72.347 Y96.119 E7.75012
G1 X72.506 Y95.84 E7.76507
G1 X72.742 Y95.446 E7.78646
G1 X72.884 Y95.221 E7.79885
G1 X73.168 Y94.796 E7.82265
G1 X73.308 Y94.597 E7.83398
G1 X73.571 Y94.239 E7.85466
G1 X73.756 Y93.999 E7.86877
G1 X74.097 Y93.581 E7.89389
G1 X74.334 Y93.305 E7.91083
G1 X74.7 Y92.9 E7.93625
G1 X74.919 Y92.671 E7.95101
G1 X75.42 Y92.183 E7.98357
G1 X75.725 Y91.905 E8.00279
G1 X76.156 Y91.533 E8.0293
G1 X76.425 Y91.314 E8.04545
G1 X77.001 Y90.878 E8.07909
G1 X77.334 Y90.644 E8.09804
G1 X77.733 Y90.378 E8.12037
G1 X77.982 Y90.22 E8.1341
G1 X78.603 Y89.856 E8.16762
G1 X78.981 Y89.652 E8.18762
G1 X79.572 Y89.357 E8.21838
G1 X79.851 Y89.229 E8.23267
G1 X80.344 Y89.018 E8.25764
G1 X80.755 Y88.855 E8.27823
G1 X81.381 Y88.631 E8.30919
G1 X81.845 Y88.485 E8.33184
G1 X82.105 Y88.409 E8.34445
G1 X82.523 Y88.296 E8.36461
G1 X82.754 Y88.239 E8.37569
G1 X83.137 Y88.152 E8.39398
G1 X83.389 Y88.1 E8.40596
G1 X84.082 Y87.98 E8.43871
G1 X84.525 Y87.921 E8.45952
G1 X84.83 Y87.887 E8.47381
G1 X85.35 Y87.842 E8.49812
G1 X85.801 Y87.815 E8.51915
G1 X86.254 Y87.798 E8.54026
G1 X86.867 Y87.79 E8.56881
G1 X148.054 Y87.797 E11.41793
G1 X148.841 Y87.807 E11.45458
G0 F6000 X148.847 Y87.407
G1 F1200 X149.72 Y87.455 E11.49529
G1 X150.536 Y87.534 E11.53347
G1 X151.552 Y87.683 E11.58128
G1 X151.838 Y87.739 E11.59485
G1 X152.423 Y87.87 E11.62277
G1 X152.756 Y87.955 E11.63877
G1 X153.318 Y88.116 E11.66599
G1 X153.84 Y88.284 E11.69153
G1 X154.081 Y88.367 E11.7034
G1 X154.673 Y88.591 E11.73287
G1 X154.971 Y88.714 E11.74788
G1 X155.416 Y88.909 E11.7705
G1 X155.677 Y89.031 E11.78392
G1 X156.171 Y89.278 E11.80964
G1 X156.447 Y89.425 E11.8242
G1 X157.029 Y89.76 E11.85547
G1 X157.384 Y89.979 E11.87489
G1 X157.898 Y90.316 E11.90351
G1 X158.148 Y90.491 E11.91772
G1 X158.699 Y90.905 E11.94981
G1 X159.047 Y91.184 E11.97058
G1 X159.504 Y91.572 E11.99849
G1 X159.742 Y91.786 E12.0134
G1 X160.214 Y92.237 E12.0438
G1 X160.446 Y92.473 E12.05921
G1 X160.889 Y92.952 E12.08959
G1 X161.154 Y93.257 E12.1084
G1 X161.585 Y93.787 E12.14021
G1 X161.831 Y94.11 E12.15912
G1 X162.244 Y94.692 E12.19235
G1 X162.446 Y94.998 E12.20942
G1 X162.769 Y95.519 E12.23796
G1 X162.961 Y95.85 E12.25578
G1 X163.279 Y96.44 E12.28699
G1 X163.438 Y96.759 E12.30359
G1 X163.722 Y97.378 E12.3353
G1 X163.865 Y97.718 E12.35248
G1 X164.195 Y98.613 E12.39689
G1 X164.421 Y99.323 E12.43159
G1 X164.668 Y100.239 E12.47576
G1 X164.75 Y100.608 E12.49337
G1 X164.877 Y101.283 E12.52535
G1 X164.928 Y101.612 E12.54085
G1 X165.004 Y102.219 E12.56934
G1 X165.039 Y102.582 E12.58632
G1 X165.075 Y103.072 E12.60919
G1 X165.086 Y103.293 E12.6195
G1 X165.098 Y103.954 E12.65028
G1 X165.092 Y104.427 E12.67231
G1 X165.056 Y105.175 E12.70718
G1 X165.017 Y105.642 E12.729
G1 X164.921 Y106.434 E12.76615
G1 X164.866 Y106.778 E12.78237
G1 X164.755 Y107.364 E12.81014
G1 X164.676 Y107.726 E12.8274
G1 X164.511 Y108.382 E12.85889
G1 X164.414 Y108.721 E12.87531
G1 X164.211 Y109.363 E12.90666
G1 X164.056 Y109.799 E12.92821
G1 X163.976 Y110.009 E12.93868
G1 X163.802 Y110.436 E12.96015
G1 X163.682 Y110.714 E12.97424
G1 X163.431 Y111.253 E13.00193
G1 X163.272 Y111.571 E13.01849
G1 X163.018 Y112.048 E13.04365
G1 X162.871 Y112.308 E13.05756
G1 X162.613 Y112.741 E13.08103
G1 X162.47 Y112.968 E13.09352
G1 X162.204 Y113.369 E13.11593
G1 X162.058 Y113.579 E13.12784
G1 X161.75 Y113.999 E13.15209
G1 X161.565 Y114.239 E13.1662
G1 X161.222 Y114.662 E13.19156
G1 X160.984 Y114.94 E13.2086
G1 X160.606 Y115.358 E13.23484
G1 X160.424 Y115.549 E13.24712
G1 X160.06 Y115.913 E13.27109
G1 X159.62 Y116.326 E13.29919
G1 X158.878 Y116.99 E13.34556
G1 X128.954 Y143.052 E15.19333
G1 X127.973 Y143.876 E15.25298
G1 X127.295 Y144.4 E15.29288
G1 X126.946 Y144.648 E15.31282
G1 X126.502 Y144.947 E15.33774
G1 X126.254 Y145.105 E15.35144
G1 X125.598 Y145.49 E15.38686
G1 X125.215 Y145.697 E15.40713
G1 X124.52 Y146.04 E15.44322
G1 X124.095 Y146.231 E15.46491
G1 X123.513 Y146.473 E15.49426
G1 X123.247 Y146.574 E15.50751
G1 X122.709 Y146.762 E15.53405
G1 X122.007 Y146.975 E15.56821
G1 X121.562 Y147.095 E15.58967
G1 X121.33 Y147.152 E15.60079
G1 X120.7 Y147.29 E15.63082
G1 X119.971 Y147.416 E15.66527
G1 X119.526 Y147.476 E15.68618
G1 X119.223 Y147.51 E15.70038
G1 X118.695 Y147.556 E15.72506
G1 X118.339 Y147.578 E15.74167
G1 X117.345 Y147.593 E15.78796
G1 X116.598 Y147.569 E15.82276
G1 X115.655 Y147.496 E15.8668
G1 X115.286 Y147.451 E15.88411
G1 X114.599 Y147.344 E15.91648
G1 X114.229 Y147.274 E15.93402
G1 X113.556 Y147.124 E15.96612
G1 X113.222 Y147.038 E15.98218
G1 X112.706 Y146.891 E16.00717
G1 X112.15 Y146.713 E16.03435
G1 X111.904 Y146.628 E16.04647
G1 X111.338 Y146.414 E16.07465
G1 X111.041 Y146.292 E16.0896
G1 X110.523 Y146.063 E16.11597
G1 X110.266 Y145.941 E16.12922
G1 X109.87 Y145.742 E16.14985
G1 X109.593 Y145.596 E16.16443
G1 X108.95 Y145.228 E16.19893
G1 X108.579 Y144.998 E16.21926
G1 X108.072 Y144.663 E16.24755
G1 X107.857 Y144.512 E16.25979
G1 X107.198 Y144.01 E16.29836
G1 X106.728 Y143.621 E16.32677
G1 X105.827 Y142.86 E16.38169
G1 X76.156 Y117.012 E18.21403
G1 X75.22 Y116.162 E18.2729
G1 X74.91 Y115.87 E18.29273
G1 X74.593 Y115.558 E18.31344
G1 X73.954 Y114.87 E18.35716
G1 X73.755 Y114.636 E18.37147
G1 X73.369 Y114.154 E18.40022
G1 X73.123 Y113.828 E18.41924
G1 X72.707 Y113.236 E18.45293
G1 X72.521 Y112.951 E18.46878
G1 X72.227 Y112.473 E18.49491
G1 X72.034 Y112.14 E18.51283
G1 X71.713 Y111.543 E18.54439
G1 X71.546 Y111.207 E18.56186
G1 X71.256 Y110.572 E18.59437
G1 X71.112 Y110.227 E18.61178
G1 X70.782 Y109.323 E18.65659
G1 X70.567 Y108.639 E18.68997
G1 X70.321 Y107.712 E18.73463
G1 X70.241 Y107.344 E18.75217
G1 X70.128 Y106.739 E18.78083
G1 X70.072 Y106.383 E18.79761
G1 X69.986 Y105.69 E18.83012
G1 X69.953 Y105.325 E18.84719
G1 X69.918 Y104.788 E18.87225
G1 X69.91 Y104.585 E18.88171
G1 X69.903 Y104.055 E18.90639
G1 X69.908 Y103.584 E18.92832
G1 X69.946 Y102.794 E18.96515
G1 X69.985 Y102.338 E18.98646
G1 X70.079 Y101.566 E19.02267
G1 X70.135 Y101.216 E19.03918
G1 X70.254 Y100.592 E19.06876
G1 X70.336 Y100.223 E19.08636
G1 X70.495 Y99.598 E19.11639
G1 X70.594 Y99.253 E19.1331
G1 X70.735 Y98.801 E19.15515
G1 X70.818 Y98.554 E19.16728
G1 X70.999 Y98.056 E19.19196
G1 X71.074 Y97.865 E19.20151
G1 X71.228 Y97.494 E19.22022
G1 X71.353 Y97.208 E19.23475
G1 X71.598 Y96.686 E19.2616
G1 X71.741 Y96.402 E19.27641
G1 X72 Y95.921 E19.30184
G1 X72.159 Y95.642 E19.3168
G1 X72.404 Y95.233 E19.339
G1 X72.546 Y95.008 E19.35139
G1 X72.84 Y94.566 E19.3761
G1 X72.98 Y94.367 E19.38743
G1 X73.255 Y93.995 E19.40898
G1 X73.44 Y93.755 E19.42309
G1 X73.793 Y93.32 E19.44917
G1 X74.03 Y93.044 E19.46611
G1 X74.411 Y92.624 E19.49252
G1 X74.63 Y92.395 E19.50727
G1 X75.15 Y91.887 E19.54112
G1 X75.455 Y91.609 E19.56034
G1 X75.904 Y91.223 E19.58791
G1 X76.173 Y91.004 E19.60406
G1 X76.771 Y90.551 E19.63899
G1 X77.104 Y90.317 E19.65794
G1 X77.519 Y90.04 E19.68118
G1 X77.768 Y89.882 E19.69491
G1 X78.413 Y89.504 E19.72972
G1 X78.791 Y89.3 E19.74972
G1 X79.405 Y88.994 E19.78167
G1 X79.684 Y88.866 E19.79596
G1 X80.196 Y88.647 E19.82189
G1 X80.607 Y88.484 E19.84248
G1 X81.258 Y88.25 E19.87469
G1 X81.733 Y88.101 E19.89787
G1 X81.993 Y88.025 E19.91048
G1 X82.659 Y87.851 E19.94254
G1 X83.056 Y87.761 E19.96149
G1 X83.308 Y87.709 E19.97347
G1 X83.815 Y87.617 E19.99747
G1 X84.02 Y87.585 E20.00713
G1 X84.481 Y87.523 E20.02879
G1 X84.786 Y87.489 E20.04308
G1 X85.327 Y87.443 E20.06836
G1 X85.778 Y87.416 E20.0894
G1 X86.248 Y87.398 E20.1113
G1 X86.867 Y87.39 E20.14012
G1 X148.054 Y87.397 E22.98925
G1 X148.847 Y87.407 E23.02618
G0 F6000 X148.852 Y87.007
G1 F1200 X149.759 Y87.057 E23.06847
G1 X150.575 Y87.136 E23.10665
G1 X151.629 Y87.29 E23.15625
G1 X151.915 Y87.346 E23.16982
G1 X152.522 Y87.483 E23.19879
G1 X152.855 Y87.568 E23.2148
G1 X153.439 Y87.734 E23.24307
G1 X154.211 Y87.989 E23.28092
G1 X154.826 Y88.221 E23.31153
G1 X155.124 Y88.344 E23.32654
G1 X155.585 Y88.547 E23.35
G1 X155.846 Y88.669 E23.36341
G1 X156.359 Y88.925 E23.39011
G1 X156.635 Y89.072 E23.40467
G1 X157.239 Y89.419 E23.43711
G1 X157.594 Y89.638 E23.45653
G1 X158.127 Y89.988 E23.48622
G1 X158.377 Y90.163 E23.50043
G1 X158.95 Y90.593 E23.53379
G1 X159.298 Y90.872 E23.55456
G1 X159.772 Y91.274 E23.5835
G1 X160.01 Y91.488 E23.5984
G1 X160.499 Y91.957 E23.62995
G1 X160.731 Y92.193 E23.64536
G1 X161.191 Y92.689 E23.67686
G1 X161.456 Y92.994 E23.69567
G1 X161.903 Y93.544 E23.72868
G1 X162.149 Y93.867 E23.74758
G1 X162.578 Y94.472 E23.78212
G1 X162.78 Y94.778 E23.79919
G1 X163.115 Y95.319 E23.82882
G1 X163.307 Y95.65 E23.84664
G1 X163.637 Y96.262 E23.87901
G1 X163.796 Y96.581 E23.89561
G1 X164.091 Y97.223 E23.92851
G1 X164.234 Y97.563 E23.94569
G1 X164.576 Y98.492 E23.99178
G1 X164.802 Y99.202 E24.02648
G1 X165.058 Y100.152 E24.07229
G1 X165.14 Y100.521 E24.08989
G1 X165.272 Y101.222 E24.12311
G1 X165.323 Y101.551 E24.13861
G1 X165.402 Y102.18 E24.16813
G1 X165.437 Y102.543 E24.18511
G1 X165.474 Y103.052 E24.20887
G1 X165.485 Y103.273 E24.21918
G1 X165.498 Y103.96 E24.25117
G1 X165.492 Y104.433 E24.2732
G1 X165.455 Y105.208 E24.30933
G1 X165.416 Y105.675 E24.33115
G1 X165.316 Y106.497 E24.36971
G1 X165.261 Y106.841 E24.38593
G1 X165.146 Y107.449 E24.41474
G1 X165.067 Y107.811 E24.43199
G1 X164.896 Y108.492 E24.46469
G1 X164.799 Y108.831 E24.48111
G1 X164.59 Y109.489 E24.51326
G1 X164.349 Y110.151 E24.54606
G1 X164.169 Y110.594 E24.56833
G1 X164.049 Y110.872 E24.58242
G1 X163.789 Y111.432 E24.61117
G1 X163.63 Y111.75 E24.62773
G1 X163.367 Y112.245 E24.65383
G1 X163.22 Y112.505 E24.66774
G1 X162.951 Y112.954 E24.69211
G1 X162.808 Y113.181 E24.7046
G1 X162.533 Y113.597 E24.72782
G1 X162.387 Y113.807 E24.73973
G1 X162.067 Y114.244 E24.76495
G1 X161.882 Y114.484 E24.77906
G1 X161.526 Y114.922 E24.80535
G1 X161.288 Y115.2 E24.82239
G1 X160.896 Y115.634 E24.84962
G1 X160.714 Y115.825 E24.8619
G1 X160.336 Y116.203 E24.8868
G1 X159.887 Y116.624 E24.91546
G1 X159.141 Y117.292 E24.96208
G1 X129.211 Y143.358 E26.81018
G1 X128.23 Y144.182 E26.86984
G1 X127.527 Y144.726 E26.91123
G1 X127.178 Y144.974 E26.93117
G1 X126.716 Y145.284 E26.95707
G1 X126.468 Y145.442 E26.97077
G1 X125.788 Y145.842 E27.0075
G1 X125.405 Y146.049 E27.02777
G1 X124.684 Y146.405 E27.06522
G1 X124.259 Y146.596 E27.08691
G1 X123.655 Y146.847 E27.11737
