;FLAVOR:Marlin
;TIME:3758
;Filament used: 2.22943m
;Layer height: 0.2
;MINX:79.802
;MINY:79.804
;MINZ:0.2
;MAXX:140.198
;MAXY:140.197
;MAXZ:31.4
;Generated with Cura_SteamEngine 4.7.1
M140 S60
M105
M190 S60
M104 S200
M105
M109 S200
M82 ;absolute extrusion mode
; Ender 3 Custom Start G-code
G92 E0 ; Reset Extruder
G28 ; Home all axes
G1 Z2.0 F3000 ; Move Z Axis up little to prevent scratching of Heat Bed
G1 X0.1 Y20 Z0.3 F5000.0 ; Move to start position
G1 X0.1 Y200.0 Z0.3 F1500.0 E15 ; Draw the first line
G1 X0.4 Y200.0 Z0.3 F5000.0 ; Move to side a little
G1 X0.4 Y20 Z0.3 F1500.0 E30 ; Draw the second line
G92 E0 ; Reset Extruder
G1 Z2.0 F3000 ; Move Z Axis up little to prevent scratching of Heat Bed
G1 X5 Y20 Z0.3 F5000.0 ; Move over to prevent blob squish
G92 E0
G92 E0
G1 F1500 E-6.5
;LAYER_COUNT:157
;LAYER:0
M107
G0 F6000 X88.307 Y88.997 Z0.2
;TYPE:SKIRT
G1 F1500 E0
G1 F1200 X89.124 Y88.19 E0.03819
G1 X89.355 Y87.968 E0.04885
G1 X89.648 Y87.695 E0.06217
G1 X89.879 Y87.486 E0.07253
G1 X90.305 Y87.111 E0.09141
G1 X90.491 Y86.951 E0.09957
G1 X90.839 Y86.66 E0.11466
G1 X91.117 Y86.436 E0.12653
G1 X91.624 Y86.039 E0.14795
G1 X92.037 Y85.732 E0.16506
G1 X92.125 Y85.67 E0.16864
G1 X92.378 Y85.485 E0.17907
G1 X92.757 Y85.22 E0.19445
G1 X92.954 Y85.088 E0.20234
G1 X93.385 Y84.792 E0.21973
G1 X93.73 Y84.564 E0.23348
G1 X94.132 Y84.309 E0.24932
G1 X94.34 Y84.181 E0.25744
G1 X94.725 Y83.95 E0.27237
G1 X94.887 Y83.856 E0.2786
G1 X95.108 Y83.731 E0.28705
G1 X95.71 Y83.4 E0.3099
G1 X96.122 Y83.185 E0.32535
G1 X96.376 Y83.059 E0.33478
G1 X96.588 Y82.956 E0.34262
G1 X97.246 Y82.647 E0.3668
G1 X97.496 Y82.525 E0.37605
G1 X98.042 Y82.277 E0.396
G1 X98.216 Y82.204 E0.40227
G1 X98.372 Y82.136 E0.40793
G1 X98.661 Y82.015 E0.41835
G1 X99.174 Y81.81 E0.43673
G1 X99.524 Y81.677 E0.44918
G1 X99.768 Y81.589 E0.45781
G1 X100.021 Y81.501 E0.46672
G1 X100.702 Y81.274 E0.49059
G1 X101.142 Y81.138 E0.50591
G1 X101.716 Y80.973 E0.52578
G1 X101.929 Y80.914 E0.53313
G1 X102.372 Y80.796 E0.54838
G1 X102.633 Y80.723 E0.55739
G1 X103.139 Y80.594 E0.57476
G1 X103.413 Y80.531 E0.58411
G1 X103.92 Y80.427 E0.60132
G1 X104.196 Y80.377 E0.61065
G1 X104.814 Y80.258 E0.63158
G1 X105.243 Y80.184 E0.64606
G1 X105.711 Y80.117 E0.66179
G1 X106.323 Y80.042 E0.6823
G1 X106.658 Y79.997 E0.69354
G1 X107.065 Y79.953 E0.70715
G1 X107.065 Y79.951 E0.70722
G1 X107.313 Y79.925 E0.71551
G1 X107.751 Y79.888 E0.73013
G1 X108.417 Y79.845 E0.75233
G1 X108.795 Y79.827 E0.76492
G1 X109.26 Y79.813 E0.78039
G1 X109.506 Y79.808 E0.78857
G1 X110.026 Y79.804 E0.80587
G1 X110.296 Y79.806 E0.81485
G1 X110.83 Y79.815 E0.83261
G1 X111.248 Y79.83 E0.84653
G1 X112.068 Y79.875 E0.87384
G1 X112.49 Y79.906 E0.88791
G1 X113.035 Y79.957 E0.90612
G1 X113.284 Y79.983 E0.91445
G1 X113.79 Y80.042 E0.93139
G1 X114.042 Y80.074 E0.93984
G1 X114.387 Y80.124 E0.95143
G1 X114.681 Y80.169 E0.96133
G1 X114.929 Y80.209 E0.96968
G1 X115.643 Y80.335 E0.9938
G1 X116.073 Y80.42 E1.00837
G1 X116.789 Y80.576 E1.03275
G1 X117.234 Y80.683 E1.04797
G1 X117.967 Y80.875 E1.07317
G1 X118.361 Y80.986 E1.08679
G1 X119.172 Y81.231 E1.11496
G1 X119.452 Y81.32 E1.12474
G1 X119.63 Y81.379 E1.13097
G1 X119.99 Y81.505 E1.14366
G1 X120.816 Y81.811 E1.17296
G1 X121.212 Y81.966 E1.1871
G1 X121.954 Y82.274 E1.21382
G1 X122.359 Y82.452 E1.22854
G1 X123.104 Y82.797 E1.25584
G1 X123.474 Y82.977 E1.26953
G1 X123.69 Y83.087 E1.27759
G1 X123.921 Y83.208 E1.28626
G1 X124.629 Y83.59 E1.31302
G1 X124.999 Y83.799 E1.32715
G1 X125.839 Y84.295 E1.3596
G1 X126.174 Y84.501 E1.37268
G1 X126.41 Y84.652 E1.382
G1 X126.628 Y84.795 E1.39067
G1 X127.152 Y85.148 E1.41168
G1 X127.367 Y85.297 E1.42038
G1 X127.652 Y85.499 E1.432
G1 X127.956 Y85.722 E1.44454
G1 X128.493 Y86.131 E1.46699
G1 X128.942 Y86.492 E1.48616
G1 X129.18 Y86.694 E1.49654
G1 X129.63 Y87.063 E1.51589
G1 X129.859 Y87.256 E1.52585
G1 X130.032 Y87.406 E1.53347
G1 X130.354 Y87.697 E1.54791
G1 X130.941 Y88.248 E1.57468
G1 X131.258 Y88.558 E1.58943
G1 X131.829 Y89.139 E1.61652
G1 X132.09 Y89.413 E1.62911
G1 X132.29 Y89.631 E1.63895
G1 X132.512 Y89.88 E1.65005
G1 X132.733 Y90.136 E1.66129
G1 X132.858 Y90.277 E1.66756
G1 X133.07 Y90.523 E1.67836
G1 X133.483 Y91.019 E1.69983
G1 X133.604 Y91.168 E1.70621
G1 X133.768 Y91.375 E1.715
G1 X134.037 Y91.723 E1.72963
G1 X134.179 Y91.91 E1.73744
G1 X134.301 Y92.075 E1.74426
G1 X134.679 Y92.602 E1.76583
G1 X134.826 Y92.812 E1.77436
G1 X135.089 Y93.198 E1.78989
G1 X135.341 Y93.579 E1.80509
G1 X135.496 Y93.821 E1.81464
G1 X135.714 Y94.173 E1.82842
G1 X135.842 Y94.385 E1.83665
G1 X136.027 Y94.703 E1.84889
G1 X136.269 Y95.133 E1.8653
G1 X136.441 Y95.43 E1.87672
G1 X136.594 Y95.703 E1.88712
G1 X136.705 Y95.908 E1.89488
G1 X136.889 Y96.26 E1.90809
G1 X137.047 Y96.579 E1.91993
G1 X137.387 Y97.294 E1.94626
G1 X137.486 Y97.508 E1.9541
G1 X137.691 Y97.964 E1.97073
G1 X137.867 Y98.378 E1.98569
G1 X137.964 Y98.619 E1.99434
G1 X138.039 Y98.799 E2.00082
G1 X138.182 Y99.159 E2.0137
G1 X138.316 Y99.514 E2.02633
G1 X138.414 Y99.784 E2.03588
G1 X138.557 Y100.195 E2.05035
G1 X138.624 Y100.393 E2.0573
G1 X138.837 Y101.047 E2.08018
G1 X138.908 Y101.275 E2.08812
G1 X138.974 Y101.498 E2.09586
G1 X139.098 Y101.928 E2.11074
G1 X139.164 Y102.165 E2.11893
G1 X139.24 Y102.46 E2.12906
G1 X139.348 Y102.894 E2.14393
G1 X139.411 Y103.157 E2.15293
G1 X139.526 Y103.673 E2.17051
G1 X139.62 Y104.126 E2.1859
G1 X139.711 Y104.634 E2.20306
G1 X139.829 Y105.391 E2.22855
G1 X139.889 Y105.742 E2.24039
G1 X139.95 Y106.137 E2.25368
G1 X139.997 Y106.535 E2.26701
G1 X140.076 Y107.31 E2.29292
G1 X140.099 Y107.563 E2.30137
G1 X140.125 Y107.909 E2.31291
G1 X140.14 Y108.146 E2.32081
G1 X140.153 Y108.386 E2.32881
G1 X140.183 Y109.11 E2.35291
G1 X140.19 Y109.335 E2.36039
G1 X140.195 Y109.574 E2.36835
G1 X140.198 Y109.998 E2.38245
G1 X140.196 Y110.238 E2.39043
G1 X140.189 Y110.635 E2.40364
G1 X140.182 Y110.879 E2.41176
G1 X140.154 Y111.581 E2.43512
G1 X140.129 Y112.003 E2.44918
G1 X140.068 Y112.781 E2.47514
G1 X140.029 Y113.188 E2.48874
G1 X139.989 Y113.533 E2.50029
G1 X139.956 Y113.79 E2.50891
G1 X139.849 Y114.555 E2.5346
G1 X139.81 Y114.814 E2.54331
G1 X139.754 Y115.155 E2.5548
G1 X139.679 Y115.561 E2.56854
G1 X139.532 Y116.285 E2.59311
G1 X139.48 Y116.527 E2.60134
G1 X139.359 Y117.061 E2.61955
G1 X139.266 Y117.439 E2.6325
G1 X139.14 Y117.916 E2.64891
G1 X139.082 Y118.129 E2.65625
G1 X138.998 Y118.423 E2.66642
G1 X138.927 Y118.662 E2.67471
G1 X138.715 Y119.345 E2.6985
G1 X138.587 Y119.729 E2.71196
G1 X138.43 Y120.176 E2.72772
G1 X138.356 Y120.382 E2.735
G1 X138.138 Y120.961 E2.75558
G1 X137.998 Y121.31 E2.76808
G1 X137.662 Y122.107 E2.79685
G1 X137.526 Y122.418 E2.80814
G1 X137.429 Y122.631 E2.81593
G1 X137.256 Y122.997 E2.82939
G1 X137.06 Y123.4 E2.8443
G1 X136.948 Y123.624 E2.85262
G1 X136.757 Y123.995 E2.8665
G1 X136.639 Y124.219 E2.87492
G1 X136.381 Y124.693 E2.89287
G1 X136.111 Y125.16 E2.91082
G1 X136.03 Y125.293 E2.91599
G1 X135.826 Y125.64 E2.92938
G1 X135.507 Y126.15 E2.94939
G1 X135.303 Y126.458 E2.96168
G1 X135.091 Y126.787 E2.9747
G1 X134.949 Y127.003 E2.98329
G1 X134.746 Y127.303 E2.99534
G1 X134.587 Y127.532 E3.00461
G1 X134.517 Y127.63 E3.00862
G1 X134.236 Y128.006 E3.02423
G1 X133.856 Y128.492 E3.04475
G1 X133.61 Y128.817 E3.05831
G1 X133.376 Y129.115 E3.07091
G1 X133.203 Y129.324 E3.07993
G1 X132.899 Y129.685 E3.09563
G1 X132.684 Y129.933 E3.10655
G1 X132.557 Y130.076 E3.11291
G1 X132.115 Y130.561 E3.13473
G1 X131.958 Y130.729 E3.14238
G1 X131.733 Y130.962 E3.15315
G1 X131.164 Y131.536 E3.18004
G1 X130.872 Y131.82 E3.19358
G1 X130.366 Y132.294 E3.21664
G1 X130.03 Y132.596 E3.23167
G1 X129.39 Y133.148 E3.25978
G1 X129.129 Y133.366 E3.27109
G1 X128.908 Y133.545 E3.28055
G1 X128.636 Y133.758 E3.29204
G1 X128.054 Y134.201 E3.31637
G1 X127.668 Y134.487 E3.33235
G1 X127.164 Y134.843 E3.35287
G1 X126.953 Y134.988 E3.36138
G1 X126.636 Y135.201 E3.37409
G1 X126.262 Y135.442 E3.38889
G1 X125.761 Y135.75 E3.40845
G1 X125.598 Y135.848 E3.41477
G1 X124.984 Y136.211 E3.4385
G1 X124.591 Y136.433 E3.45351
G1 X124.025 Y136.737 E3.47488
G1 X123.593 Y136.956 E3.49099
G1 X123.069 Y137.215 E3.51043
G1 X122.75 Y137.366 E3.52217
G1 X122.249 Y137.595 E3.54049
G1 X121.9 Y137.748 E3.55316
G1 X121.246 Y138.02 E3.57672
G1 X120.814 Y138.189 E3.59215
G1 X120.253 Y138.395 E3.61203
G1 X120.252 Y138.392 E3.61213
G1 X119.713 Y138.582 E3.63114
G1 X119.499 Y138.65 E3.63861
G1 X118.885 Y138.852 E3.66011
G1 X118.538 Y138.959 E3.67218
G1 X118.178 Y139.065 E3.68467
G1 X117.838 Y139.159 E3.6964
G1 X117.184 Y139.329 E3.71887
G1 X116.752 Y139.432 E3.73364
G1 X116.066 Y139.581 E3.75699
G1 X115.639 Y139.665 E3.77147
G1 X114.969 Y139.783 E3.79409
G1 X114.493 Y139.856 E3.81011
G1 X113.969 Y139.925 E3.82769
G1 X113.673 Y139.968 E3.83764
G1 X113.165 Y140.03 E3.85466
G1 X112.689 Y140.077 E3.87057
G1 X112.434 Y140.099 E3.87908
G1 X112.248 Y140.113 E3.88529
G1 X112.032 Y140.127 E3.89248
G1 X111.222 Y140.172 E3.91947
G1 X110.798 Y140.187 E3.93358
G1 X110.325 Y140.195 E3.94931
G1 X110.07 Y140.197 E3.95779
G1 X109.59 Y140.194 E3.97376
G1 X109.085 Y140.179 E3.99056
G1 X108.635 Y140.155 E4.00555
G1 X108.277 Y140.142 E4.01747
G1 X107.923 Y140.123 E4.02926
G1 X107.623 Y140.102 E4.03926
G1 X107.237 Y140.068 E4.05215
G1 X106.412 Y139.981 E4.07974
G1 X106.083 Y139.942 E4.09076
G1 X105.654 Y139.883 E4.10516
G1 X105.384 Y139.842 E4.11424
G1 X104.678 Y139.724 E4.13805
G1 X104.464 Y139.686 E4.14528
G1 X104.16 Y139.629 E4.15557
G1 X103.723 Y139.537 E4.17042
G1 X102.892 Y139.346 E4.19878
G1 X102.678 Y139.295 E4.2061
G1 X102.439 Y139.235 E4.21429
G1 X102.211 Y139.175 E4.22214
G1 X101.734 Y139.043 E4.2386
G1 X101.278 Y138.91 E4.2544
G1 X101 Y138.825 E4.26406
G1 X100.766 Y138.75 E4.27224
G1 X100.108 Y138.529 E4.29532
G1 X99.636 Y138.358 E4.31202
G1 X99.048 Y138.13 E4.333
G1 X98.811 Y138.041 E4.34142
G1 X98.533 Y137.932 E4.35135
G1 X98.295 Y137.835 E4.3599
G1 X97.928 Y137.678 E4.37317
G1 X97.26 Y137.377 E4.39754
G1 X97.028 Y137.269 E4.40605
G1 X96.599 Y137.062 E4.4219
G1 X96.371 Y136.948 E4.43038
G1 X95.955 Y136.732 E4.44597
G1 X95.746 Y136.62 E4.45385
G1 X95.097 Y136.262 E4.4785
G1 X94.705 Y136.035 E4.49357
G1 X94.128 Y135.685 E4.51602
G1 X93.951 Y135.575 E4.52295
G1 X93.646 Y135.382 E4.53495
G1 X93.279 Y135.139 E4.54959
G1 X92.365 Y134.508 E4.58653
G1 X92.121 Y134.336 E4.59646
G1 X92.028 Y134.268 E4.60029
G1 X91.756 Y134.062 E4.61164
G1 X91.247 Y133.665 E4.63311
G1 X91.059 Y133.515 E4.64111
G1 X90.755 Y133.267 E4.65416
G1 X90.59 Y133.129 E4.66131
G1 X90.213 Y132.809 E4.67776
G1 X89.943 Y132.573 E4.68969
G1 X89.483 Y132.156 E4.71034
G1 X89.103 Y131.795 E4.72777
G1 X88.363 Y131.057 E4.76253
G1 X88.087 Y130.771 E4.77575
G1 X87.643 Y130.295 E4.7974
G1 X87.317 Y129.929 E4.8137
G1 X86.89 Y129.431 E4.83552
G1 X86.668 Y129.163 E4.8471
G1 X86.442 Y128.881 E4.85912
G1 X86.264 Y128.652 E4.86876
G1 X86.017 Y128.342 E4.88195
G1 X85.834 Y128.106 E4.89188
G1 X85.729 Y127.967 E4.89767
G1 X85.485 Y127.632 E4.91146
G1 X85.097 Y127.076 E4.93401
G1 X84.946 Y126.854 E4.94294
G1 X84.705 Y126.49 E4.95746
G1 X84.366 Y125.958 E4.97844
G1 X84.119 Y125.554 E4.99419
G1 X83.863 Y125.115 E5.01109
G1 X83.75 Y124.917 E5.01867
G1 X83.361 Y124.217 E5.04531
G1 X83.158 Y123.835 E5.0597
G1 X82.921 Y123.366 E5.07718
G1 X82.807 Y123.132 E5.08583
G1 X82.639 Y122.776 E5.09893
G1 X82.514 Y122.503 E5.10891
G1 X82.418 Y122.288 E5.11674
G1 X82.163 Y121.698 E5.13812
G1 X81.988 Y121.27 E5.1535
G1 X81.665 Y120.427 E5.18353
G1 X81.565 Y120.155 E5.19317
G1 X81.494 Y119.954 E5.20026
G1 X81.298 Y119.369 E5.22078
G1 X81.175 Y118.976 E5.23447
G1 X80.992 Y118.348 E5.25623
G1 X80.895 Y118.029 E5.26732
G1 X80.71 Y117.341 E5.29101
G1 X80.51 Y116.487 E5.32019
G1 X80.417 Y116.051 E5.33501
G1 X80.263 Y115.248 E5.36221
G1 X80.188 Y114.809 E5.37702
G1 X80.09 Y114.156 E5.39898
G1 X80.034 Y113.728 E5.41334
G1 X79.943 Y112.902 E5.44098
G1 X79.907 Y112.514 E5.45394
G1 X79.869 Y112.004 E5.47095
G1 X79.853 Y111.742 E5.47968
G1 X79.83 Y111.287 E5.49483
G1 X79.821 Y111.055 E5.50255
G1 X79.813 Y110.783 E5.51161
G1 X79.809 Y110.574 E5.51856
G1 X79.802 Y109.812 E5.5439
G1 X79.803 Y109.655 E5.54913
G1 X79.807 Y109.421 E5.55691
G1 X79.815 Y109.132 E5.56652
G1 X79.824 Y108.897 E5.57435
G1 X79.857 Y108.224 E5.59676
G1 X79.896 Y107.696 E5.61437
G1 X79.932 Y107.325 E5.62676
G1 X79.969 Y106.887 E5.64138
G1 X79.997 Y106.599 E5.65101
G1 X80.023 Y106.364 E5.65887
G1 X80.078 Y105.941 E5.67306
G1 X80.199 Y105.135 E5.70017
G1 X80.273 Y104.7 E5.71484
G1 X80.412 Y103.974 E5.73943
G1 X80.509 Y103.52 E5.75487
G1 X80.713 Y102.654 E5.78446
G1 X80.814 Y102.259 E5.79802
G1 X80.99 Y101.619 E5.8201
G1 X81.064 Y101.361 E5.82903
G1 X81.127 Y101.152 E5.83629
G1 X81.235 Y100.81 E5.84821
G1 X81.317 Y100.561 E5.85693
G1 X81.535 Y99.927 E5.87923
G1 X81.659 Y99.585 E5.89133
G1 X81.773 Y99.286 E5.90198
G1 X82.039 Y98.604 E5.92632
G1 X82.215 Y98.176 E5.94172
G1 X82.429 Y97.685 E5.95953
G1 X82.597 Y97.319 E5.97292
G1 X82.899 Y96.69 E5.99613
G1 X83.011 Y96.462 E6.00458
G1 X83.268 Y95.957 E6.02343
G1 X83.463 Y95.591 E6.03722
G1 X83.779 Y95.024 E6.05881
G1 X83.912 Y94.792 E6.0677
G1 X84.014 Y94.619 E6.07438
G1 X84.27 Y94.206 E6.09054
G1 X84.677 Y93.563 E6.11585
G1 X84.825 Y93.334 E6.12492
G1 X85.129 Y92.877 E6.14318
G1 X85.305 Y92.619 E6.15357
G1 X85.603 Y92.214 E6.17029
G1 X85.727 Y92.053 E6.17705
G1 X86.106 Y91.544 E6.19816
G1 X86.43 Y91.131 E6.21562
G1 X86.925 Y90.529 E6.24154
G1 X87.2 Y90.208 E6.2556
G1 X87.815 Y89.516 E6.28639
G1 X88.307 Y88.997 E6.31017
G0 F6000 X88.588 Y89.282
G1 F1200 X89.405 Y88.475 E6.34837
G1 X89.628 Y88.261 E6.35865
G1 X89.921 Y87.988 E6.37197
G1 X90.143 Y87.787 E6.38193
G1 X90.569 Y87.412 E6.40081
G1 X90.749 Y87.257 E6.40871
G1 X91.091 Y86.97 E6.42356
G1 X91.209 Y86.874 E6.42862
G1 X91.871 Y86.354 E6.45661
G1 X92.268 Y86.058 E6.47308
G1 X92.352 Y85.999 E6.4765
G1 X92.613 Y85.808 E6.48726
G1 X92.979 Y85.553 E6.50209
G1 X93.197 Y85.408 E6.5108
G1 X93.612 Y85.122 E6.52756
G1 X93.944 Y84.902 E6.54081
G1 X94.346 Y84.647 E6.55664
G1 X94.546 Y84.523 E6.56447
G1 X94.768 Y84.389 E6.5731
G1 X95.088 Y84.202 E6.58542
G1 X95.301 Y84.081 E6.59357
G1 X95.903 Y83.75 E6.61642
G1 X96.299 Y83.543 E6.63128
G1 X96.553 Y83.417 E6.64071
G1 X96.758 Y83.318 E6.64828
G1 X97.466 Y82.985 E6.67431
G1 X97.672 Y82.885 E6.68192
G1 X98.198 Y82.645 E6.70115
G1 X98.531 Y82.503 E6.71319
G1 X98.81 Y82.387 E6.72324
G1 X99.323 Y82.182 E6.74162
G1 X99.66 Y82.054 E6.75361
G1 X99.904 Y81.966 E6.76223
G1 X100.148 Y81.881 E6.77083
G1 X100.829 Y81.654 E6.7947
G1 X101.253 Y81.523 E6.80946
G1 X101.827 Y81.358 E6.82933
G1 X102.032 Y81.301 E6.83641
G1 X102.434 Y81.194 E6.85024
G1 X102.741 Y81.108 E6.86085
G1 X103.229 Y80.984 E6.87759
G1 X103.503 Y80.921 E6.88694
G1 X103.991 Y80.82 E6.90352
G1 X104.344 Y80.756 E6.91545
G1 X104.89 Y80.651 E6.93394
G1 X105.163 Y80.602 E6.94317
G1 X105.308 Y80.578 E6.94806
G1 X105.759 Y80.514 E6.96321
G1 X106.428 Y80.433 E6.98562
G1 X106.712 Y80.394 E6.99516
G1 X107.107 Y80.351 E7.00837
G1 X107.107 Y80.349 E7.00844
G1 X107.355 Y80.323 E7.01673
G1 X107.777 Y80.287 E7.03082
G1 X108.443 Y80.244 E7.05301
G1 X108.807 Y80.227 E7.06513
G1 X109.272 Y80.213 E7.08061
G1 X109.509 Y80.208 E7.08849
G1 X110.029 Y80.204 E7.10579
G1 X110.29 Y80.206 E7.11447
G1 X110.824 Y80.215 E7.13223
G1 X111.226 Y80.229 E7.14561
G1 X112.046 Y80.274 E7.17293
G1 X112.453 Y80.304 E7.1865
G1 X112.998 Y80.355 E7.2047
G1 X113.238 Y80.38 E7.21273
G1 X113.744 Y80.439 E7.22967
G1 X114.194 Y80.5 E7.24478
G1 X114.621 Y80.564 E7.25914
G1 X114.859 Y80.603 E7.26716
G1 X115.573 Y80.729 E7.29128
G1 X115.988 Y80.811 E7.30534
G1 X116.704 Y80.967 E7.32972
G1 X117.133 Y81.07 E7.34439
G1 X117.866 Y81.262 E7.36959
G1 X118.245 Y81.369 E7.38269
G1 X119.056 Y81.614 E7.41087
G1 X119.326 Y81.699 E7.42029
G1 X119.504 Y81.758 E7.42652
G1 X119.851 Y81.88 E7.43876
G1 X120.677 Y82.186 E7.46805
G1 X121.059 Y82.336 E7.4817
G1 X121.801 Y82.644 E7.50842
G1 X122.191 Y82.815 E7.52259
G1 X122.936 Y83.16 E7.54989
G1 X123.292 Y83.333 E7.56306
G1 X123.508 Y83.443 E7.57112
G1 X123.731 Y83.56 E7.5795
G1 X124.439 Y83.942 E7.60625
G1 X124.796 Y84.143 E7.61988
G1 X125.636 Y84.639 E7.65233
